!!!COM: Beethoven, Ludwig van
!!!CDT: 1770///-1827///
!!!ODT: 1798///-1800///
!!!OTL: String Quartet No. 5 in A Major, Op. 18, No. 5
!!!OPS: Op. 18
!!!ONM: No. 5
!!!OMV: Mvmt. 1
!!!OMD: Allegro
!!!PDT: 1801///
!!!PPP: Vienna
!!!PPR: C. Haslinger qm Tobias
!!!ODE: Dem F&uuml;rsten von Lobkowitz gewidmet
!!!MPD: 1798///-1800///
**kern	**dynam	**kern	**dynam	**kern	**dynam	**kern	**dynam
*staff4	*staff4	*staff3	*staff3	*staff2	*staff2	*staff1	*staff1
*Icello	*Icello	*Iviola	*Iviola	*Ivioln	*Ivioln	*Ivioln	*Ivioln
*>[A,A1,A,A2,B,B1,B,B2]	*>[A,A1,A,A2,B,B1,B,B2]	*>[A,A1,A,A2,B,B1,B,B2]	*>[A,A1,A,A2,B,B1,B,B2]	*>[A,A1,A,A2,B,B1,B,B2]	*>[A,A1,A,A2,B,B1,B,B2]	*>[A,A1,A,A2,B,B1,B,B2]	*>[A,A1,A,A2,B,B1,B,B2]
*>norep[A,A2,B,B2]	*>norep[A,A2,B,B2]	*>norep[A,A2,B,B2]	*>norep[A,A2,B,B2]	*>norep[A,A2,B,B2]	*>norep[A,A2,B,B2]	*>norep[A,A2,B,B2]	*>norep[A,A2,B,B2]
*>A	*>A	*>A	*>A	*>A	*>A	*>A	*>A
*clefF4	*clefF4	*clefC3	*clefC3	*clefG2	*clefG2	*clefG2	*clefG2
*k[f#c#g#]	*k[f#c#g#]	*k[f#c#g#]	*k[f#c#g#]	*k[f#c#g#]	*k[f#c#g#]	*k[f#c#g#]	*k[f#c#g#]
*A:	*A:	*A:	*A:	*A:	*A:	*A:	*A:
*M6/8	*M6/8	*M6/8	*M6/8	*M6/8	*M6/8	*M6/8	*M6/8
*MM132	*MM132	*MM132	*MM132	*MM132	*MM132	*MM132	*MM132
=1-	=1-	=1-	=1-	=1-	=1-	=1-	=1-
8AA/L	f	4r	.	4r	.	4e\ 4cc#\ 4aa\	f
8C#/	.	.	.	.	.	.	.
8E/J	.	8r	.	8r	.	8r	.
.	.	.	.	.	.	(bq\	.
.	.	.	.	.	.	aq\)	.
.	.	.	.	.	.	g#q\	.
4A\	.	4c#\	.	4e/	.	8a\L	.
.	.	.	.	.	.	8b\	.
8r	.	8r	.	8r	.	8cc#\J	.
=2	=2	=2	=2	=2	=2	=2	=2
8AA/L	.	4r	.	4r	.	4r	.
8C#/	.	.	.	.	.	.	.
8E/J	.	8r	.	8r	.	8r	.
.	.	.	.	.	.	(ddq\	.
.	.	.	.	.	.	cc#q\)	.
.	.	.	.	.	.	bq\	.
4A\	.	4c#\	.	4e/	.	8cc#\L	.
.	.	.	.	.	.	8dd\	.
8r	.	8r	.	8r	.	8ee\J	.
=3	=3	=3	=3	=3	=3	=3	=3
8AA/L	.	4r	.	4r	.	4r	.
8C#/	.	.	.	.	.	.	.
8E/J	.	8r	.	8r	.	8r	.
.	.	.	.	.	.	(ff#q\	.
.	.	.	.	.	.	eeq\)	.
.	.	.	.	.	.	dd#q\	.
4A\	.	4c#\	.	4e/	.	8ee\L	.
.	.	.	.	.	.	8ff#\	.
8r	.	8r	.	8r	.	8gg#\J	.
=4	=4	=4	=4	=4	=4	=4	=4
2.r	.	2.r	.	2.r	.	8aa\L	.
.	.	.	.	.	.	8bb\	.
.	.	.	.	.	.	8ccc#\J	.
.	.	.	.	.	.	8ccc#\L	.
.	.	.	.	.	.	8ddd\	.
.	.	.	.	.	.	8eee\J	.
=5	=5	=5	=5	=5	=5	=5	=5
(8AA/L	p	2.d\	p	2.f#/	p	(4.fff#\	.
8D/	.	.	.	.	.	.	.
8F#/J)	.	.	.	.	.	.	.
[4.AA/	.	.	.	.	.	8ddd\L)	.
.	.	.	.	.	.	8r	.
.	.	.	.	.	.	8ccc#\J	.
=6	=6	=6	=6	=6	=6	=6	=6
(8AA/L]	.	[2.B/)	.	[2.g#/)	.	8bb\L	.
8D/	.	.	.	.	.	8r	.
8E/J)	.	.	.	.	.	8ccc#\J	.
[4.AA/	.	.	.	.	.	8ddd\L	.
.	.	.	.	.	.	8r	.
.	.	.	.	.	.	8ddd#\J	.
=7	=7	=7	=7	=7	=7	=7	=7
(8AA/L]	.	(4.B/]	.	(4.g#/]	.	(4.eee\	.
8D/	.	.	.	.	.	.	.
8E/J)	.	.	.	.	.	.	.
(8AA/L	.	[4.c#\)	.	[4.a/	.	8ccc#\L)	.
8C#/	.	.	.	.	.	8aa\	.
8E/J)	.	.	.	.	.	8bb\J	.
=8	=8	=8	=8	=8	=8	=8	=8
(8AA/L	.	4.c#\]	.	4.a/]	.	8ccc#\L	.
8C#/	.	.	.	.	.	8ccc#\	.
8E/J)	.	.	.	.	.	8ddd\J	.
(8AA\L	.	4.c#\	.	4.gn/)	.	8eee\L	.
8E\	.	.	.	.	.	8eee\	.
8Gn\J)	.	.	.	.	.	8eee#\J	.
=9	=9	=9	=9	=9	=9	=9	=9
(8AA/L	.	(2.d\	.	(2.f#/	.	(4.fff#\	.
8D/	.	.	.	.	.	.	.
8F#/J)	.	.	.	.	.	.	.
[4.AA/	.	.	.	.	.	4ddd\)	.
.	.	.	.	.	.	8ccc#\	.
=10	=10	=10	=10	=10	=10	=10	=10
(8AA/L]	.	2.B/)	.	2.g#/)	.	8bb\L	.
8D/	.	.	.	.	.	8r	.
8E/J)	.	.	.	.	.	8ccc#\J	.
(8AA/L	.	.	.	.	.	8ddd\L	.
8BB/	.	.	.	.	.	8r	.
8D/J)	.	.	.	.	.	8eee\J	.
=11	=11	=11	=11	=11	=11	=11	=11
4AA/	.	4c#\	.	4a/	.	4aa\	.
8r	.	8r	.	8r	.	8r	.
4.r	.	4r	.	4r	.	(16a\LL	p
.	.	.	.	.	.	16b\	.
.	.	.	.	.	.	16cc#\	.
.	.	.	.	.	.	16dd\	.
.	.	8r	.	8r	.	16ee\	.
.	.	.	.	.	.	16cc#\JJ)	.
=12	=12	=12	=12	=12	=12	=12	=12
8r	.	8r	.	8r	.	4dd\	.
8E\L	p	8E/L	p	8e/L	p	.	.
8E\J	.	8E/J	.	8e/J	.	8r	.
4r	.	4r	.	4r	.	(16ee\LL	.
.	.	.	.	.	.	16ff#\	.
.	.	.	.	.	.	16gg#\	.
.	.	.	.	.	.	16aa\	.
8r	.	8r	.	8r	.	16bb\	.
.	.	.	.	.	.	16gg#\JJ)	.
=13	=13	=13	=13	=13	=13	=13	=13
8r	.	8r	.	8r	.	4aa\	.
8C#/L	.	8C#/L	.	8c#/L	.	.	.
8C#/J	.	8C#/J	.	8c#/J	.	8r	.
4r	.	4r	.	4r	.	(16a\LL	.
.	.	.	.	.	.	16b\	.
.	.	.	.	.	.	16cc#\	.
.	.	.	.	.	.	16dd\	.
8r	.	8r	.	8r	.	16ee\	.
.	.	.	.	.	.	16cc#\JJ)	.
=14	=14	=14	=14	=14	=14	=14	=14
8r	.	8r	.	8r	.	8ff#/L	.
8D\L	.	8D/L	.	8d/L	.	8d/	.
8D\	.	8D/	.	8d/	.	8d/J	.
8r	.	8r	.	8r	.	8gg#\L	.
8E\	.	8E/	.	8e/	.	8e\	.
8E\J	.	8E/J	.	8e/J	.	8e\J	.
=15	=15	=15	=15	=15	=15	=15	=15
8r	.	8r	.	8r	.	8aa/L	.
8AA/L	.	8A/L	.	8A/L	.	8A/	.
8AA/J	.	8A/J	.	8A/J	.	8A/J	.
4r	.	4r	.	4r	.	(16a\LL	.
.	.	.	.	.	.	16b\	.
.	.	.	.	.	.	16cc#\	.
.	.	.	.	.	.	16dd\	.
8r	.	8r	.	8r	.	16ee\	.
.	.	.	.	.	.	16cc#\JJ)	.
=16	=16	=16	=16	=16	=16	=16	=16
8r	.	8r	.	8r	.	4dd\	.
8E\L	.	8E/L	.	8e/L	.	.	.
8E\J	.	8E/J	.	8e/J	.	8r	.
4r	.	4r	.	4r	.	(16ee\LL	.
.	.	.	.	.	.	16ff#\	.
.	.	.	.	.	.	16gg#\	.
.	.	.	.	.	.	16aa\	.
8r	.	8r	.	8r	.	16bb\	.
.	.	.	.	.	.	16gg#\JJ)	.
=17	=17	=17	=17	=17	=17	=17	=17
8r	.	8r	.	8r	.	8aa\L	<
8C#\L	<	8C#/L	<	8c#/L	<	8a\	<
8C#\	<	8C#/	<	8c#/	<	8a\J	.
8r	.	8r	.	8r	.	8aa\L	.
8Gn\	.	8Gn/	.	8gn/	.	8gn\	.
8Gn\J	.	8Gn/J	.	8gn/J	.	8gn\J	.
=18	=18	=18	=18	=18	=18	=18	=18
8r	.	8r	.	8r	.	8aa\L	.
8F#\L	.	8F#/L	.	8f#/L	.	8f#\	.
8F#\	.	8F#/	.	8f#/	.	8f#\J	.
8r	.	8r	.	8r	.	8aa\L	.
8Fn\	.	8Fn/	.	8fn/	.	8fn\	.
8Fn\J	.	8Fn/J	.	8fn/J	.	8fn\J	.
=19	=19	=19	=19	=19	=19	=19	=19
4.E\	p	[2.E/	p	4e/	p	(8e\L	.
.	.	.	.	.	.	16g#\L	.
.	.	.	.	.	.	16b\	.
.	.	.	.	8r	.	16ee\)	.
.	.	.	.	.	.	16gg#\JJ	.
(8D/L	.	.	.	4r	.	(4bb\	.
8BB/	.	.	.	.	.	.	.
8D/J	.	.	.	8r	.	8gg#\	.
=20	=20	=20	=20	=20	=20	=20	=20
8C#/L	.	4.E/_	.	8r	.	4aa\	.
8AA/	.	.	.	(8cc#\L	.	.	.
8GG#/J	.	.	.	8b\J	.	8bb\	.
8AA/L	.	8E/L]	.	8cc#\L	.	4ccc#\	.
8FF#/	.	8A/	.	8a\	.	.	.
8BB/J)	.	8A/J	.	8b\J)	.	8ddd#\)	.
=21	=21	=21	=21	=21	=21	=21	=21
8EE/L	.	4G#/	.	4b\	.	8eee\L	<
(8E/	<	.	.	.	.	8ee\	<
8D#/J	<	8r	.	8r	.	8ff#\J	.
8E/L	.	[4.E/	.	4r	.	8gg#\L	.
8D/	.	.	.	.	.	8gg#\	.
8BB/J	.	.	.	8r	.	8gg#\J	.
=22	=22	=22	=22	=22	=22	=22	=22
8C#/L	.	8E/L]	<	8r	.	8aa\L	.
8AA/	.	8e/	.	(8cc#\L	<	8aa\	.
8GG#/J	.	8e/J	.	8b\J	<	8bb\J	.
8AA/L	.	(8e/L	.	8cc#/L	.	8ccc#\L	.
8FF#/	.	8A/	.	8a/)	.	8ccc#\	.
8BB/J)	.	8B/J)	.	8a/J	.	8ddd#\J	.
=23	=23	=23	=23	=23	=23	=23	=23
8EE/L	f	4B/	f	4g#/	f	8eee\L	f
8GG#/	.	.	.	.	.	8eee\	.
8BB/J	.	8r	.	8r	.	8ggg#\J	.
8E\L	.	4B/	.	4g#/	.	8eee\L	.
8G#\	.	.	.	.	.	8eee\	.
8B\J	.	8r	.	8r	.	8bbb\J	.
=24	=24	=24	=24	=24	=24	=24	=24
4e\	.	4B/	.	4g#/	.	4eee\	.
8r	.	8r	.	8r	.	8r	.
8r	.	8r	.	8r	.	8r	.
8r	.	8r	.	8r	.	8r	.
8BB/	p	8B/	p	8B/	p	8B/	p
=25	=25	=25	=25	=25	=25	=25	=25
4Gn\	.	4gn\	.	4gn/	.	4gn/	.
8D#\	.	8d#\	.	8d#/	.	8d#/	.
4E\	.	4e\	.	4e/	.	4e/	.
8BB/	.	8B/	.	8B/	.	8B/	.
=26	=26	=26	=26	=26	=26	=26	=26
(4Cn/	.	(4cn\	.	(4cn/	.	(4cn/	.
16D/LL	.	16d\LL	.	16d/LL	.	16d/LL	.
16Cn/JJ	.	16cn\JJ	.	16cn/JJ)	.	16cn/JJ	.
4BB/)	.	4B/)	.	4B/	.	4B/)	.
(16B\LL	.	8r	.	8r	.	8B/	.
16A\JJ)	.	.	.	.	.	.	.
=27	=27	=27	=27	=27	=27	=27	=27
(4Gn\	.	2.r	.	(4B/	.	(4e/	.
8F#\	.	.	.	8d#/	.	8f#/	.
4E\	.	.	.	4e/	.	4gn/	.
8D#\)	.	.	.	8f#/)	.	8a/)	.
=28	=28	=28	=28	=28	=28	=28	=28
(4E\	.	2.r	.	(4f#/	.	(4a/	.
8AA#/	.	.	.	8e/	.	8gn/	.
4BB/)	.	.	.	4d#/)	.	4f#/)	.
8r	.	.	.	8r	.	(8B/	.
=29	=29	=29	=29	=29	=29	=29	=29
(4E\	.	[4.B/	.	(4Gn/	.	4gn/	.
8F#\	.	.	.	8A/	.	8d#/	.
4Gn\)	.	4B/]	.	4B/	.	4e/)	.
(8G#\	.	8e\	.	8B/	.	(8e/	.
=30	=30	=30	=30	=30	=30	=30	=30
4A\	.	[4.e\	.	4cn/	.	4ccn\	.
8B\)	.	.	.	8d/	.	8g#/	.
4cn\	.	4e\]	.	4e/)	.	4a/)	.
8F#\	.	8r	.	8ccn\	.	8ee\	.
=31	=31	=31	=31	=31	=31	=31	=31
4Gn\	.	8r	.	(8ccn\L	.	(8ee\L	.
.	.	8r	.	8b\	.	8dd\)	.
8Cn/	.	8e\	.	8a\J	.	8ccn\J	.
.	.	.	.	.	.	(ddq\	.
4D\	.	(8e\L	.	8a/L	.	8ccn\L	.
.	.	8d\)	.	&(8gn/&)	.	8b\)	.
8DD/	.	8cn\J	.	8f#/J	.	8a\J	.
=32	=32	=32	=32	=32	=32	=32	=32
4GGn/	.	(4.cn\	.	4.f#/	.	(4.a/	.
8D\	.	.	.	.	.	.	.
4Gn\	.	8B/L)	.	8gn/L)	.	8gn/)	.
.	.	8r	.	8r	.	8r	.
8BB/	f	8B/J	f	8b/J	f	8r	.
=33	=33	=33	=33	=33	=33	=33	=33
4Gn\	.	4gn\	.	4ggn\	.	2.r	.
8D#\	.	8d#\	.	8dd#\	.	.	.
4E\	.	4e\	.	4ee\	.	.	.
8BB/	.	8B/	.	8b\	.	.	.
=34	=34	=34	=34	=34	=34	=34	=34
(4Cn/	.	(4cn\	.	(4ccn\	.	4r	.
16D/LL	.	16d\LL	.	16dd\LL	.	8r	.
16Cn/JJ	.	16cn\JJ	.	16ccn\JJ)	.	.	.
4BB/)	.	4B/	.	4b\	.	8r	.
.	.	.	.	.	.	8r	.
8r	.	16b\LL	p	8b\	p	8b\	p
.	.	&(16a\JJ&)	.	.	.	.	.
=35	=35	=35	=35	=35	=35	=35	=35
2.r	.	4gn\	.	(4b\	.	(4ee\	.
.	.	8f#\	.	8dd#\	.	8ff#\	.
.	.	4e\	.	4ee\	.	4ggn\	.
.	.	8d#\)	.	8ff#\)	.	8aa\)	.
=36	=36	=36	=36	=36	=36	=36	=36
*clefC4	*clefG2	*	*	*	*	*	*
2.r	.	(4e\	.	(4ff#\	.	(4aa\	.
.	.	8A#/	.	8ee\	.	8ggn\	.
.	.	4B/)	.	4dd#\)	.	4ff#\)	.
.	.	8r	.	8r	.	(8b\	pp
=37	=37	=37	=37	=37	=37	=37	=37
(4E/	pp	[4.b\	pp	(4g#/	pp	4gg#\	.
8F#/	.	.	.	8a/	.	8dd#\	.
4G#/)	.	4b\]	.	4b\	.	4ee\)	.
(8G#/	.	8b\	.	8b\	.	(8ee\	<
=38	=38	=38	=38	=38	=38	=38	=38
4A/	.	[4.ee\	.	4cc#\	<	4ccc#\	.
8B\	.	.	.	8dd\	>	8gg#\	>
4c#\)	.	4ee\]	.	4ee\)	.	4aa\)	.
8r	.	8r	.	8r	.	8r	.
=39	=39	=39	=39	=39	=39	=39	=39
2.r	.	2.r	.	2.r	.	4r	.
.	.	.	.	.	.	8r	.
.	.	.	.	.	.	8r	.
.	.	.	.	.	.	8r	.
.	.	.	.	.	.	(8ee\	pp
=40	=40	=40	=40	=40	=40	=40	=40
*clefF4	*clefF4	*	*	*	*	*	*
2.r	.	4r	.	2.r	.	4ccc#\	.
.	.	8r	.	.	.	8gg#\	.
.	.	8r	.	.	.	4aa\	.
.	.	8r	.	.	.	.	.
.	.	(8g#\	pp	.	.	8ee#\	.
=41	=41	=41	=41	=41	=41	=41	=41
4r	.	4a\	.	8r	.	4ff#\)	.
.	.	.	.	8r	.	.	.
8r	.	8e#\	.	(8g#/	pp	[8cc#\	.
4r	.	4f#\)	.	4a/)	.	4cc#\]	.
(8E\	pp	[8f#\	.	[8a/	.	8ccn\	.
=42	=42	=42	=42	=42	=42	=42	=42
4D#\	.	(4f#\]	.	(4a/]	.	[4.b\	.
8E\	.	8e\	.	8g#/	.	.	.
4AA/	.	4c#\	.	4f#/	.	(8b/L]	.
.	.	.	.	.	.	8a/)	.
8BB/)	.	8A/)	.	8d#/)	.	8f#/J	.
=43	=43	=43	=43	=43	=43	=43	=43
4EE/	.	4G#/	.	(4e/	pp	4e/	.
8r	.	8r	.	8f#/)	.	8r	.
4r	.	4r	.	8g#/L	.	4r	.
.	.	.	.	8f#/	.	.	.
8r	.	8r	.	8e/J	.	8r	.
=44	=44	=44	=44	=44	=44	=44	=44
2.r	.	(4B/	pp	4d#/	.	4r	.
.	.	8c#\)	.	8c#/	.	8r	.
.	.	8d\L	.	4B/	.	8r	.
.	.	8c#\	.	.	.	8ee#\L	pp
.	.	8B\J	.	8r	.	8ee#\J	.
=45	=45	=45	=45	=45	=45	=45	=45
2.r	.	4A/	.	(4f#/	.	4ff#\	.
.	.	8G#/	.	8g#/)	.	8r	.
.	.	4F#/	.	8a/L	.	4r	.
.	.	.	.	8g#/	.	.	.
.	.	8r	.	8f#/J	.	8r	.
=46	=46	=46	=46	=46	=46	=46	=46
2.r	.	(4c#\	.	4e/	.	4r	.
.	.	8d#\)	.	8d#/	.	8r	.
.	.	8e\L	.	4c#/	.	8r	.
.	.	8d#\	.	.	.	8ff##\L	.
.	.	8c#\J	.	8r	.	8ff##\J	.
=47	=47	=47	=47	=47	=47	=47	=47
2.r	.	4B/	.	(4g#/	.	4gg#\	.
.	.	8A#/	.	8a#/)	.	8r	.
.	.	4G#/	.	8b/L	.	4r	.
.	.	.	.	8a#/	.	.	.
.	.	8r	.	8g#/J	.	8r	.
=48	=48	=48	=48	=48	=48	=48	=48
(4BB/	f	4B/	f	(8a/L	f	(4a\ 4aa\	f
.	.	.	.	8d#/)	.	.	.
8C#/)	.	8B/	.	8e/J	.	8gg#\)	.
8D#\L	.	8B/L	.	8f#/L	.	8ff#\L	.
8E\	.	8B/	.	8g#/	.	8ee\	.
8F#\J	.	8B/J	.	8a/J	.	8dd#\J	.
=49	=49	=49	=49	=49	=49	=49	=49
(8G#\L	p	(8B/L	p	8b\	p	(8dd#\L	p
8E\J)	.	8G#/J	.	(8b/L	.	8ee\)	.
8r	.	8r	.	8g#/	.	8b\	.
(8A\L	.	8c#\L	.	8r	.	8r	.
8c#\J)	.	&(8e\J&)	.	8cc#/	.	(8ee\	.
8r	.	8r	.	&(8a/J&)	.	8cc#\J)	.
=50	=50	=50	=50	=50	=50	=50	=50
(8BB/L	.	8E/L	.	8r	.	8r	.
8E/J)	.	8G#/J	.	8g#/L	.	(8b/L	.
8r	.	8r	.	8e/	.	8g#/)	.
(8BB\L	.	8F#/L	.	8r	.	8r	.
8F#\J)	.	&(8A/J&)	.	8f#/	.	(8a/	.
8r	.	8r	.	&(8d#/J&)	.	8f#/J)	.
=51	=51	=51	=51	=51	=51	=51	=51
4EE/	f	4G#/	f	8e/L	f	8e\L	f
.	.	.	.	8e/	.	8ee\	.
8r	.	8r	.	8f#/J	.	8ff#\J	.
4r	.	4r	.	8g#/L	.	8gg#\L	.
.	.	.	.	8f#/	.	8ff#\	.
8r	.	8r	.	8e/J	.	8ee\J	.
=52	=52	=52	=52	=52	=52	=52	=52
(4BB/	.	4B/	.	4d#/	.	4dd#\	.
8C#/)	.	8c#\)	.	8c#/	.	8cc#\	.
8D/L	.	8d\L	.	4B/	.	4b\	.
8C#/	.	8c#\	.	.	.	.	.
8BB/J	.	8B\J	.	8r	.	8r	.
=53	=53	=53	=53	=53	=53	=53	=53
4AA/	.	4A/	.	4f#/	.	(4ff#\	.
8GG#/	.	8G#/	.	8g#/)	.	8gg#\)	.
4FF#/	.	4F#/	.	8a/L	.	8aa\L	.
.	.	.	.	8g#/	.	8gg#\	.
8r	.	8r	.	8f#/J	.	8ff#\J	.
=54	=54	=54	=54	=54	=54	=54	=54
(4C#/	.	(4c#\	.	4e/	.	4ee\	.
8D#\)	.	8d#\)	.	8d#/	.	8dd#\	.
8E\L	.	8e\L	.	4c#/	.	4cc#\	.
8D#\	.	8d#\	.	.	.	.	.
8C#\J	.	8c#\J	.	8r	.	8r	.
=55	=55	=55	=55	=55	=55	=55	=55
4BB/	.	4B/	.	(4g#/	f	(4gg#\	f
8AA#/	.	8A#/	.	8a#/)	.	8aa#\)	.
4GG#/	.	4G#/	.	8b/L	.	8bb\L	.
.	.	.	.	8a#/	.	8bb\	.
8r	.	8r	.	8g#/J	.	8bb\J	.
=56	=56	=56	=56	=56	=56	=56	=56
4BB/	.	4f#\	.	4a/	.	2.bb\	.
8C#/	.	8e\	.	8g#/	.	.	.
8D#\L	.	8d#\L	.	8f#/L	.	.	.
8E\	.	8c#\	.	8e/	.	.	.
8F#\J	.	8B\J	.	8d#/J	.	.	.
=57	=57	=57	=57	=57	=57	=57	=57
4BB/	.	4f#\	.	4a/	.	2.bb\	.
8C#/	.	8e\	.	8g#/	.	.	.
8D#\L	.	8d#\L	.	8f#/L	.	.	.
8E\	.	8c#\	.	8e/	.	.	.
8F#\J	.	8B\J	.	8d#/J	.	.	.
=58	=58	=58	=58	=58	=58	=58	=58
8F#\L	.	8d#\L	.	8a\L	.	8bb\L	.
8F#\	.	8d#\	.	8aa\	.	8bb\	.
8E\J	.	8e\J	.	8gg#\J	.	8ccc#\J	.
8D#/L	.	8f#\L	.	8ff#\L	.	8ddd#\L	.
8C#/	.	8g#\	.	8ee\	.	8eee\	.
8BB/J	.	8a\J	.	8dd#\J	.	8fff#\J	.
=59	=59	=59	=59	=59	=59	=59	=59
4E\	.	4B/	.	8ee\	.	4.ggg#\	.
.	.	.	.	(8e/L	.	.	.
8r	.	8r	.	8ee/	.	.	.
4C#/	.	4e\	.	8r	.	4.aaa\	.
.	.	.	.	8e/	.	.	.
8r	.	8r	.	&(8ee/J&)	.	.	.
=60	=60	=60	=60	=60	=60	=60	=60
4GG#/	.	4e\	.	8r	.	4.bbb\	.
.	.	.	.	8e/L	.	.	.
8r	.	8r	.	8ee/	.	.	.
4AA#/	.	4e\	.	8r	.	4.cccc#\	.
.	.	.	.	8e/	.	.	.
8r	.	8r	.	&(8ee/J&)	.	.	.
=61	=61	=61	=61	=61	=61	=61	=61
(8BB\L	.	[4.e\	.	[4.g#/	.	[4.B/	.
8G#\	.	.	.	.	.	.	.
8E\J)	.	.	.	.	.	.	.
8BB/L	.	8e\L]	.	8g#/L]	.	8B/L]	.
8BB/	.	8f#\	.	8a/	.	8aa/	.
8BB/J	.	8f#\J	.	8a/J	.	8dd#/J	.
=62	=62	=62	=62	=62	=62	=62	=62
4E\	.	4e\	.	4g#/	.	(16ee\LL	.
.	.	.	.	.	.	16gg#\)	.
.	.	.	.	.	.	16bb\	.
.	.	.	.	.	.	16gg#\	.
8r	.	8r	.	8r	.	16ee\	.
.	.	.	.	.	.	16gg#\JJ	.
4r	.	4r	.	4r	.	16b/LL	.
.	.	.	.	.	.	16ee/	.
.	.	.	.	.	.	16g#/	.
.	.	.	.	.	.	16b/	.
8r	.	8r	.	8r	.	16e/	.
.	.	.	.	.	.	16g#/JJ	.
=63	=63	=63	=63	=63	=63	=63	=63
(8B\L	.	[4.e\	.	[4.g#/	.	[4.B/	.
8G#\	.	.	.	.	.	.	.
8E\J)	.	.	.	.	.	.	.
8BB/L	.	8e\L]	.	8g#/L]	.	8B/L]	.
8BB/	.	8f#\	.	8a/	.	8aa/	.
8BB/J	.	8f#\J	.	8a/J	.	8dd#/J	.
=64	=64	=64	=64	=64	=64	=64	=64
4E\	.	4e\	.	4g#/	.	(16ee\LL	.
.	.	.	.	.	.	16gg#\)	.
.	.	.	.	.	.	16bb\	.
.	.	.	.	.	.	16gg#\	.
8r	.	8r	.	8r	.	16ee\	.
.	.	.	.	.	.	16gg#\JJ	.
4r	.	4r	.	4r	.	16b/LL	.
.	.	.	.	.	.	16ee/	.
.	.	.	.	.	.	16g#/	.
.	.	.	.	.	.	16b/	.
8r	.	8r	.	8r	.	16e/	.
.	.	.	.	.	.	16g#/JJ	.
=65	=65	=65	=65	=65	=65	=65	=65
(8B\L	.	[4.e\	.	[4.g#/	.	[4.B/	.
8G#\	.	.	.	.	.	.	.
8E\J)	.	.	.	.	.	.	.
8BB/L	.	8e\L]	.	4g#/]	.	8B/L]	.
8BB/	.	8f#\	.	.	.	8aa/	.
8BB/J	.	8f#\J	.	8a/	.	8dd#/J	.
=66	=66	=66	=66	=66	=66	=66	=66
4E\	.	4e\	.	4g#/	.	4ee\	.
8r	.	8r	.	8r	.	8r	.
4r	.	(4e\	p	4r	.	4r	.
8r	.	8e\)	.	8r	.	8r	.
=67	=67	=67	=67	=67	=67	=67	=67
2.r	.	(4e\	<	2.r	.	2.r	.
.	.	8e\	<	.	.	.	.
.	.	4e\	.	.	.	.	.
.	.	&(8e\&)	.	.	.	.	.
=68	=68	=68	=68	=68	=68	=68	=68
[4.d\	.	[4.e\	.	[4.g#/	.	[4.ff#\	.
8d\L]	.	8e\L]	.	8g#/L]	.	8ff#\L]	.
8c#\	.	8e\	.	8a/	.	8ee\	.
8G#\J	.	8e\J	.	8b/J	.	8dd\J	.
=69	=69	=69	=69	=69	=69	=69	=69
8A\L	.	8e\L	.	8cc#/L	.	8cc#\L	.
8G#\	.	8c#\	.	8e#/	.	8b\	.
8F#\J	.	8c#\J	.	8f#/J	.	8a\J	.
8B\L	.	8B/L	.	8e/L	.	(8g#/L	.
8B\	.	8B/	.	8f#/)	.	8a/)	.
8BB\J	.	8B/J	.	8d#/J	.	8f#/J	.
=70	=70	=70	=70	=70	=70	=70	=70
4E\	.	4B/	.	4e/	.	(8f#/L	.
.	.	.	.	.	.	8g#/)	.
8r	.	8r	.	8r	.	8e/J	.
(4E\	.	4E/	<	(4e/	<	(4e/	<
8E\)	<	8E/)	<	8e/)	<	8e/)	<
=71	=71	=71	=71	=71	=71	=71	=71
(4E\	.	(4E/	.	(4e/	.	(4e/	.
8E\)	.	8E/	.	8e/	.	8e/)	.
(4E\	.	4E/	.	4e/	.	(4e/	.
8E\)	.	&(8E/&)	.	&(8e/&)	.	8e/)	.
=72	=72	=72	=72	=72	=72	=72	=72
[4.E#\	f	[4.g#\	f	[4.dd\	f	[4.ddd\	f
8E#\L]	.	8g#\L]	.	8dd\L]	.	8ddd\L]	.
8E#\	.	8g#\	.	8cc#\	.	8ccc#\	.
8E#\J	.	8g#\J	.	8cc#\J	.	8bb\J	.
=73	=73	=73	=73	=73	=73	=73	=73
8F#\L	.	8c#\L	.	8cc#\L	.	8aa\L	.
8G#\	.	8c#\	.	8b\	.	8gg#\	.
8A\J	.	8c#\J	.	8a\J	.	8ff#\J	.
8B\L	.	8B/L	.	8g#/L	.	(8ee\L	.
8B\	.	8B/	.	8a/)	.	8ff#\)	.
8BB\J	.	8B/J	.	8a/J	.	8dd#\J	.
=74	=74	=74	=74	=74	=74	=74	=74
4EE/	p	8B/	p	8g#/	p	(16ee\LL	p
.	.	.	.	.	.	16gg#\)	.
.	.	8E/L	.	(8G#/L	.	16bb\	.
.	.	.	.	.	.	16gg#\	.
8r	.	8G#/	.	8B/	.	16bb\	.
.	.	.	.	.	.	16gg#\JJ	.
4BB/	.	8r	.	8r	.	(16aa\LL	.
.	.	.	.	.	.	16ff#\)	.
.	.	8F#/	.	8A/	.	16dd#\	.
.	.	.	.	.	.	16b\	.
8r	.	&(8A/J&)	.	&(8B/J&)	.	16a\	.
.	.	.	.	.	.	16f#\JJ	.
=75	=75	=75	=75	=75	=75	=75	=75
4E\	.	8r	.	8r	.	(16e\LL	.
.	.	.	.	.	.	16g#\)	.
.	.	8G#/L	.	8e/L	.	16b\	.
.	.	.	.	.	.	16ee\	.
8r	.	8B/	.	8g#/	.	16gg#\	.
.	.	.	.	.	.	16ee\JJ	.
4BB/	.	8r	.	8r	.	(16dd#\LL	.
.	.	.	.	.	.	16ff#\)	.
.	.	8A/	.	8f#/	.	16aa\	.
.	.	.	.	.	.	16ff#\	.
8r	.	&(8B/J&)	.	&(8a/J&)	.	16aa\	.
.	.	.	.	.	.	16ff#\JJ	.
=76	=76	=76	=76	=76	=76	=76	=76
4EE/	.	8r	.	8r	.	(16ee\LL	.
.	.	.	.	.	.	16gg#\)	.
.	.	8E/L	.	8G#/L	.	16bb\	.
.	.	.	.	.	.	16gg#\	.
8r	.	8G#/	.	8B/	.	16bb\	.
.	.	.	.	.	.	16gg#\JJ	.
4BB/	.	8r	.	8r	.	(16aa\LL	.
.	.	.	.	.	.	16ff#\)	.
.	.	8F#/	.	8A/	.	16dd#\	.
.	.	.	.	.	.	16b\	.
8r	.	&(8A/J&)	.	&(8B/J&)	.	16a\	.
.	.	.	.	.	.	16f#\JJ	.
=77	=77	=77	=77	=77	=77	=77	=77
4E\	.	8r	.	8r	.	(16e\LL	.
.	.	.	.	.	.	16g#\)	.
.	.	8G#/L	.	8e/L	.	16b\	.
.	.	.	.	.	.	16ee\	.
8r	.	8B/	.	8g#/	.	16gg#\	.
.	.	.	.	.	.	16ee\JJ	.
4BB/	.	8r	.	8r	.	(16dd#\LL	.
.	.	.	.	.	.	16ff#\)	.
.	.	8A/	.	8f#/	.	16aa\	.
.	.	.	.	.	.	16ff#\	.
8r	.	&(8B/J&)	.	&(8a/J&)	.	16aa\	.
.	.	.	.	.	.	16ff#\JJ	.
=78	=78	=78	=78	=78	=78	=78	=78
4E\	.	8r	.	8r	.	(16ee\LL	.
.	.	.	.	.	.	16ff#\	.
.	.	8G#/L	.	8e/L	.	16gg#\	.
.	.	.	.	.	.	16aa\	.
8r	.	8B/	.	8g#/	.	16bb\	.
.	.	.	.	.	.	16gg#\JJ)	.
4E\	.	8r	.	8r	.	(16ee\LL	.
.	.	.	.	.	.	16ff#\	.
.	.	8G#/	.	8e/	.	16gg#\	.
.	.	.	.	.	.	16aa\	.
8r	.	&(8B/J&)	.	&(8g#/J&)	.	16bb\	.
.	.	.	.	.	.	16gg#\JJ)	.
=79	=79	=79	=79	=79	=79	=79	=79
*>A1	*>A1	*>A1	*>A1	*>A1	*>A1	*>A1	*>A1
(16E\LL	.	4G#/	.	4e/	.	4ee\	.
16F#\	.	.	.	.	.	.	.
16G#\	.	.	.	.	.	.	.
16A\	.	.	.	.	.	.	.
16B\	.	8r	.	8r	.	8r	.
16G#\JJ)	.	.	.	.	.	.	.
8E/L	.	4r	.	4r	.	4r	.
8D/	.	.	.	.	.	.	.
8BB/J	.	8r	.	8r	.	8r	.
=80:|!	=80:|!	=80:|!	=80:|!	=80:|!	=80:|!	=80:|!	=80:|!
*>A2	*>A2	*>A2	*>A2	*>A2	*>A2	*>A2	*>A2
(16E\LL	.	4G#/	.	4e/	.	4ee\	.
16F#\	.	.	.	.	.	.	.
16G#\	.	.	.	.	.	.	.
16A\	.	.	.	.	.	.	.
16B\	.	8r	.	8r	.	8r	.
16G#\JJ)	.	.	.	.	.	.	.
8E\L	.	4r	.	4r	.	4r	.
8D#\	.	.	.	.	.	.	.
8D\J	.	8r	.	8r	.	8r	.
=81	=81	=81	=81	=81	=81	=81	=81
4C#/	.	4r	.	4r	.	4r	.
8r	.	8r	.	8r	.	8r	.
4r	.	4C#/	<	4c#/	<	(4c#/	<
8r	.	8C#/)	<	8c#/)	<	8c#/)	<
=82!|:	=82!|:	=82!|:	=82!|:	=82!|:	=82!|:	=82!|:	=82!|:
*>B	*>B	*>B	*>B	*>B	*>B	*>B	*>B
(4C#/	<	(4C#/	.	(4c#/	.	(4c#/	.
8C#/)	<	8C#/	.	8c#/	.	8c#/)	.
(4C#/	.	4C#/	.	4c#/	.	(4c#/	.
8C#/)	.	&(8C#/&)	.	&(8c#/&)	.	8c#/)	.
=83	=83	=83	=83	=83	=83	=83	=83
[4.E#\	f	[4.G#/	f	[4.b\	f	[4.dd\	f
8E#\L]	.	8G#/L]	.	8b/L]	.	8dd\L]	.
8F#\	.	8A/	.	8a/	.	8cc#\	.
8G#\J	.	8B/J	.	8g#/J	.	8b\J	.
=84	=84	=84	=84	=84	=84	=84	=84
4A\	.	4c#\	.	4f#/	.	4a/	.
8r	.	8r	.	8r	.	8r	.
4r	.	4r	.	4r	.	4r	.
8r	.	8r	.	8r	.	8r	.
=85	=85	=85	=85	=85	=85	=85	=85
[4.B\	.	[4.d\	.	[4.g#/	.	[4.ee#\	.
8B\L]	.	8d\L]	.	8g#/L]	.	8ee#\L]	.
8A\	.	8c#\	.	8a/	.	8ff#\	.
8G#\J	.	8B\J	.	8b/J	.	8gg#\J	.
=86	=86	=86	=86	=86	=86	=86	=86
4F#\	.	4A/	.	4cc#\	.	4aa\	.
8r	.	8r	.	8r	.	8r	.
4r	.	4r	.	4r	.	4r	.
8r	.	8r	.	8r	.	8r	.
=87	=87	=87	=87	=87	=87	=87	=87
[4.gn\	.	[4.b-\	.	[4.ee\	.	[4.ccc#\	.
8g\L]	.	8b-\L]	.	8ee\L]	.	8ccc#\L]	.
8f#\	.	8a\	.	8ff#\	.	8ddd\	.
8e\J	.	8gn\J	.	8ggn\J	.	8eee\J	.
=88	=88	=88	=88	=88	=88	=88	=88
4d\	.	4f#\	.	4aa\	.	4fff#\	.
8r	.	8r	.	8r	.	8r	.
4r	.	4r	.	4r	.	4r	.
8r	.	8r	.	8r	.	8r	.
=89	=89	=89	=89	=89	=89	=89	=89
[4.Gn\	pp	[4.c#\	pp	[4.a/	pp	[4.ee\	pp
8G\L]	.	8c#\L]	.	8a/L]	.	8ee\L]	.
8F#\	.	8d\	.	8a/	.	8ff#\	.
8E\J	.	8e\J	.	8a/J	.	8gg#\J	.
=90	=90	=90	=90	=90	=90	=90	=90
(8D\L	.	8f#\L	.	8a/	.	8aa\	.
8F#\J)	.	8d\J	.	8dd/L	.	(8ff#\L	.
8r	.	8r	.	8a/	.	8dd\)	.
(8Gn\L	.	8B\L	.	8r	.	8r	.
8B\J)	.	&(8d\J&)	.	8b/	.	(8dd\	.
8r	.	8r	.	&(8gn/J&)	.	8b\J)	.
=91	=91	=91	=91	=91	=91	=91	=91
(8AA/L	.	8D/L	.	8r	.	8r	.
8D/J)	.	8F#/J	.	8f#/L	.	(8a/L	.
8r	.	8r	.	8d/	.	8f#/)	.
(8AA/L	.	8E/L	.	8r	.	8r	.
8E/J)	.	&(8Gn/J&)	.	8e/	.	(8gn/	.
8r	.	8r	.	&(8c#/J&)	.	8e/J)	.
=92	=92	=92	=92	=92	=92	=92	=92
(8DD/L	.	[4.D/	.	[2.d/	.	4d/	.
8AA/	.	.	.	.	.	.	.
8FF#/J)	.	.	.	.	.	8r	.
[4.DD/	.	8D/L]	.	.	.	8r	.
.	.	8A/	.	.	.	8dd\L	.
.	.	8F#/J)	.	.	.	8ee\J	.
=93	=93	=93	=93	=93	=93	=93	=93
(8DD/L]	.	[4.D/	.	2.cn/ 2.d/_	.	8ff#\L	.
8Cn/	.	.	.	.	.	8r	.
8AA/J)	.	.	.	.	.	8ggn\J	.
[4.DD/	.	(8D/L]	.	.	.	8aa\L	.
.	.	8cn/	.	.	.	8r	.
.	.	8A/J)	.	.	.	8aa#\J	.
=94	=94	=94	=94	=94	=94	=94	=94
(8DD/L]	.	[4.D/	.	2.B/ 2.d/]	.	(4.bb\	.
8BB/	.	.	.	.	.	.	.
8GGn/J)	.	.	.	.	.	.	.
[4.DD/	.	(8D/L]	.	.	.	8ggn\L)	.
.	.	8B/	.	.	.	8r	.
.	.	8Gn/J)	.	.	.	8ff#\J	.
=95	=95	=95	=95	=95	=95	=95	=95
(8DD/L]	.	[4.D/	.	[2.c#/ [2.e/	.	8ee\L	.
8AA/	.	.	.	.	.	8r	.
8GGn/J)	.	.	.	.	.	8ff#\J	.
[4.DD/	.	(8D/L]	.	.	.	8ggn\L	.
.	.	8A/	.	.	.	8r	.
.	.	8Gn/J)	.	.	.	8gg#\J	.
=96	=96	=96	=96	=96	=96	=96	=96
(8DD/L]	.	(8D/L	.	4.c#/] 4.e/]	.	(4.aa\	.
8AA/	.	8A/	.	.	.	.	.
8GGn/J)	.	8Gn/J	.	.	.	.	.
(8DD/L	.	8D/L	.	[4.d/	.	8ff#\L)	.
8AA/	.	8A/	.	.	.	8dd\	.
8FF#/J)	.	&(8F#/J&)	.	.	.	8ee\J	.
=97	=97	=97	=97	=97	=97	=97	=97
(8DD/L	.	[4.D/	.	4.d/]	.	8ff#\L	.
8Cn/	.	.	.	.	.	8ff#\	.
8AA/J)	.	.	.	.	.	8ggn\J	.
[4.DD/	.	8D/L]	.	4.cn/ 4.d/	.	8aa\L	.
.	.	8cn/	.	.	.	8aa\	.
.	.	8A/J)	.	.	.	8aa#\J	.
=98	=98	=98	=98	=98	=98	=98	=98
(8DD/L]	.	[4.D/	.	2.B/ 2.d/	.	(4.bb\	.
8BB/	.	.	.	.	.	.	.
8GGn/J)	.	.	.	.	.	.	.
(4.DD/	.	(8D/L]	.	.	.	8ggn\L)	.
.	.	8B/	.	.	.	8r	.
.	.	8Gn/J)	.	.	.	8ff#\J	.
=99	=99	=99	=99	=99	=99	=99	=99
(8DD/L)	.	(8D/L	.	2.c#/)	.	8ee\L	.
8AA/	.	8A/	.	.	.	8r	.
8GGn/J)	.	8Gn/J	.	.	.	8ff#\J	.
(8DD/L	.	8D/L	.	.	.	8ggn\L	.
8AA/	.	8A/	.	.	.	8r	.
8GGn/J)	.	&(8Gn/J&)	.	.	.	8aa\J	.
=100	=100	=100	=100	=100	=100	=100	=100
4DD/	.	4F#/	.	4d/	.	4dd\	.
8r	.	8r	.	8r	.	8r	.
4r	.	16d\LL	p	4r	.	4r	.
.	.	16e\	.	.	.	.	.
.	.	16f#\	.	.	.	.	.
.	.	16gn\	.	.	.	.	.
8r	.	16a\	.	8r	.	8r	.
.	.	16f#\JJ)	.	.	.	.	.
=101	=101	=101	=101	=101	=101	=101	=101
2.r	.	4gn\	.	4r	.	8r	.
.	.	.	.	.	.	8aa\L	p
.	.	8r	.	8r	.	8aa\J	.
.	.	(16A\LL	.	(16c#/LL	p	4r	.
.	.	16B\	.	16d/	.	.	.
.	.	16c#\	.	16e/	.	.	.
.	.	16d\	.	16f#/	.	.	.
.	.	16e\	.	16gn/	.	8r	.
.	.	16c#\JJ)	.	16e/JJ)	.	.	.
=102	=102	=102	=102	=102	=102	=102	=102
4r	.	4d\	.	4f#/	.	8r	.
.	.	.	.	.	.	8ddd\L	.
8r	.	8r	.	8r	.	8ddd\J	.
(16D\LL	f	(16D/LL	f	(16d/LL	f	(16dd\LL	f
16E\	.	16E/	.	16e/	.	16ee\	.
16F#\	.	16F#/	.	16f#/	.	16ff#\	.
16Gn\	.	16Gn/	.	16gn/	.	16ggn\	.
16A\	.	16A/	.	16a/	.	16aa\	.
16F#\JJ)	.	16F#/JJ)	.	16f#/JJ)	.	16ff#\JJ)	.
=103	=103	=103	=103	=103	=103	=103	=103
4GGn/	.	4Gn/	.	4gn/	.	8bb\L	.
.	.	.	.	.	.	8gn\	.
8r	.	8r	.	8r	.	8gn\J	.
4AA/	.	4A/	.	4a/	.	8ccc#\L	.
.	.	.	.	.	.	8a\	.
8r	.	8r	.	8r	.	8a\J	.
=104	=104	=104	=104	=104	=104	=104	=104
4DD/	.	4D/	.	4d/	.	8ddd\L	.
.	.	.	.	.	.	8d\	.
8r	.	8r	.	8r	.	8d\J	.
4r	.	4r	.	(16d/LL	p	4r	.
.	.	.	.	16e/	.	.	.
.	.	.	.	16f#/	.	.	.
.	.	.	.	16gn/	.	.	.
8r	.	8r	.	16a/	.	8r	.
.	.	.	.	16f#/JJ)	.	.	.
=105	=105	=105	=105	=105	=105	=105	=105
2.r	.	2.r	.	4gn/	.	(16a\LL	p
.	.	.	.	.	.	16b\	.
.	.	.	.	.	.	16cc#\	.
.	.	.	.	.	.	16dd\	.
.	.	.	.	8r	.	16ee\	.
.	.	.	.	.	.	16cc#\JJ)	.
.	.	.	.	(16A/LL	.	4ggn\	.
.	.	.	.	16B/	.	.	.
.	.	.	.	16c#/	.	.	.
.	.	.	.	16d/	.	.	.
.	.	.	.	16e/	.	8r	.
.	.	.	.	16c#/JJ)	.	.	.
=106	=106	=106	=106	=106	=106	=106	=106
4r	.	2.r	.	4d/	.	(16ff#\LL	.
.	.	.	.	.	.	16ddd\	.
.	.	.	.	.	.	16ccc#\	.
.	.	.	.	.	.	16ddd\	.
8r	.	.	.	8r	.	16aa\	.
.	.	.	.	.	.	16ff#\JJ)	.
(16D\LL	p	.	.	4r	.	4dd\	.
16E\	.	.	.	.	.	.	.
16F#\	.	.	.	.	.	.	.
16Gn\	.	.	.	.	.	.	.
16A\	.	.	.	8r	.	8r	.
16F#\JJ)	.	.	.	.	.	.	.
=107	=107	=107	=107	=107	=107	=107	=107
4Gn\	.	(16A\LL	p	2.r	.	2.r	.
.	.	16B\	.	.	.	.	.
.	.	16c#\	.	.	.	.	.
.	.	16d\	.	.	.	.	.
8r	.	16e\)	.	.	.	.	.
.	.	16c#\JJ	.	.	.	.	.
(16AA/LL	.	4gn\	.	.	.	.	.
16BB/	.	.	.	.	.	.	.
16C#/	.	.	.	.	.	.	.
16D/	.	.	.	.	.	.	.
16E/	.	8r	.	.	.	.	.
16C#/JJ)	.	.	.	.	.	.	.
=108	=108	=108	=108	=108	=108	=108	=108
4D\	.	(16fn\LL	.	2.r	.	4r	.
.	.	16a\	.	.	.	.	.
.	.	16fn\	.	.	.	.	.
.	.	16d\	.	.	.	.	.
8r	.	16A\	.	.	.	8r	.
.	.	16Fn\JJ)	.	.	.	.	.
4r	.	4.D/	.	.	.	(16d/LL	.
.	.	.	.	.	.	16e/	.
.	.	.	.	.	.	16fn/	.
.	.	.	.	.	.	16gn/	.
8r	.	.	.	.	.	16a/)	.
.	.	.	.	.	.	16fn/JJ	.
=109	=109	=109	=109	=109	=109	=109	=109
2.r	.	2.r	.	4r	.	8b-/L	.
.	.	.	.	.	.	8gn/	.
.	.	.	.	8r	.	8gn/J	.
.	.	.	.	8A/L	p	8cc#/L	.
.	.	.	.	8c#/	.	8a/	.
.	.	.	.	8c#/J	.	8a/J	.
=110	=110	=110	=110	=110	=110	=110	=110
2.r	.	2.r	.	8B/L	.	8dd\L	.
.	.	.	.	8d/	.	8b\	.
.	.	.	.	8d/J	.	8b\J	.
.	.	.	.	8c#/L	.	8ee\L	.
.	.	.	.	8e/	.	8cc#\	.
.	.	.	.	8e/J	.	8cc#\J	.
=111	=111	=111	=111	=111	=111	=111	=111
2.r	.	2.r	.	8d/L	.	8ffn\L	.
.	.	.	.	8fn/	.	8dd\	.
.	.	.	.	8fn/J	.	8dd\J	.
.	.	.	.	8e/L	.	8ggn\L	.
.	.	.	.	8gn/	.	8ee\	.
.	.	.	.	8gn/J	.	8ee\J	.
=112	=112	=112	=112	=112	=112	=112	=112
4.D\	<	8r	.	8r	.	8aa\L	<
.	.	8d\L	<	8fn/L	<	8dd\	<
.	.	8d\	<	8fn/	<	8dd\J	.
4.Cn/	<	8r	.	8r	.	8fffn\L	.
.	.	8d\	.	8fn/	.	8dd\	.
.	.	8d\J	.	8fn/J	.	8dd\J	.
=113	=113	=113	=113	=113	=113	=113	=113
4.BB-/	.	8r	.	8r	.	8fffn\L	.
.	.	8d\L	.	8fn/L	.	8dd\	.
.	.	8d\	.	8fn/	.	8dd\J	.
4.AA/	.	8r	.	8r	.	8fffn\L	.
.	.	8d\	.	8fn/	.	8dd\	.
.	.	8d\J	.	8fn/J	.	8dd\J	.
=114	=114	=114	=114	=114	=114	=114	=114
4GG#/	.	4d\	.	4fn/	.	(16fffn\LL	.
.	.	.	.	.	.	16eee\)	.
.	.	.	.	.	.	16ddd\	.
.	.	.	.	.	.	16cccn\	.
8r	.	8r	.	8r	.	16bb\	.
.	.	.	.	.	.	16ddd\JJ	.
4r	.	4r	.	(16ffn\LL	.	4gg#\	.
.	.	.	.	16ee\)	.	.	.
.	.	.	.	16dd\	.	.	.
.	.	.	.	16ccn\	.	.	.
8r	.	8r	.	16b\	.	8r	.
.	.	.	.	16dd\JJ	.	.	.
=115	=115	=115	=115	=115	=115	=115	=115
4r	.	(16fn\LL	.	4g#/	.	2.r	.
.	.	16e\)	.	.	.	.	.
.	.	16d\	.	.	.	.	.
.	.	16cn\	.	.	.	.	.
8r	.	16B\	.	8r	.	.	.
.	.	16d\JJ	.	.	.	.	.
16E\LL	.	4G#/	.	4r	.	.	.
16Fn\	.	.	.	.	.	.	.
16E\	.	.	.	.	.	.	.
16D\	.	.	.	.	.	.	.
16Cn\	.	8r	.	8r	.	.	.
16BB\JJ	.	.	.	.	.	.	.
=116	=116	=116	=116	=116	=116	=116	=116
(4.AA/	<	8r	.	8r	.	8aa\L	<
.	.	8A/L	<	8cn/L	<	8a\	<
.	.	8A/	<	8cn/	<	8a\J	.
4.GGn/	<	8r	.	8r	.	8cccn\L	.
.	.	8A/	.	8cn/	.	8a\	.
.	.	8A/J	.	8cn/J	.	8a\J	.
=117	=117	=117	=117	=117	=117	=117	=117
4.FFn/	.	8r	.	8r	.	8cccn\L	.
.	.	8A/L	.	8cn/L	.	8a\	.
.	.	8A/	.	8cn/	.	8a\J	.
4.EE/)	.	8r	.	8r	.	8cccn\L	.
.	.	8A/	.	8cn/	.	8a\	.
.	.	8A/J	.	8cn/J	.	8a\J	.
=118	=118	=118	=118	=118	=118	=118	=118
4DD#/	f	[2.A/	f	[2.cn/	f	8cccn/L	f
.	.	.	.	.	.	(8A/	.
8r	.	.	.	.	.	8cn/J	.
4r	.	.	.	.	.	8f#/L	.
.	.	.	.	.	.	8a/	.
8r	.	.	.	.	.	8ccn/J	.
=119	=119	=119	=119	=119	=119	=119	=119
8r	.	8A\L]	.	8c/L]	.	8ff#\L	.
8D#\L	.	8f#\	.	(8ccn/	.	8aa\	.
8D#\J	.	8f#\J	.	8b/J	.	8bb\J	.
8D#\L	.	8f#\L	.	8a\L	.	8cccn\L	.
8D#\	.	8f#\	.	8b\	.	8bb\	.
8D#\J	.	8f#\J	.	8ccn\J)	.	8aa\J)	.
=120	=120	=120	=120	=120	=120	=120	=120
4E\	.	4g#\	.	4b\	.	8gg#\L	.
.	.	.	.	.	.	8ee\	.
8r	.	8r	.	8r	.	8ee\J	.
(4.d\	p	4r	.	(4.b\	p	8eee\L	p
.	.	.	.	.	.	8ee\	.
.	.	8r	.	.	.	8ee\J	.
=121	=121	=121	=121	=121	=121	=121	=121
4.cn\	.	2.r	.	4.a/	.	8eee\L	.
.	.	.	.	.	.	8ee\	.
.	.	.	.	.	.	8ee\J	.
4.B\)	.	.	.	4.g#/)	.	8eee\L	.
.	.	.	.	.	.	8ee\	.
.	.	.	.	.	.	8ee\J	.
=122	=122	=122	=122	=122	=122	=122	=122
4cn\	.	4r	.	8a/L	.	4eee\	.
.	.	.	.	8e/	.	.	.
8r	.	8r	.	8e/J	.	8r	.
(4.Cn/	.	[4.E/	p	8ee/L	.	(4.aa\	p
.	.	.	.	8e/	.	.	.
.	.	.	.	8e/J	.	.	.
=123	=123	=123	=123	=123	=123	=123	=123
4.BB/	.	4.E/_	.	8dd/L	.	4.gg#\	.
.	.	.	.	8e/	.	.	.
.	.	.	.	8e/J	.	.	.
4.AA/)	.	(8E/L]	.	8ccn/L	.	4.aa\)	.
.	.	8A/	.	8e/	.	.	.
.	.	8cn/J)	.	8e/J	.	.	.
=124	=124	=124	=124	=124	=124	=124	=124
4EE/	.	4e\	.	4g#/	.	8bb\L	.
.	.	.	.	.	.	8ee\	.
8r	.	8r	.	8r	.	8ee\J	.
(4.d\	.	4r	.	(4.b\	.	8eee\L	.
.	.	.	.	.	.	8ee\	.
.	.	8r	.	.	.	8ee\J	.
=125	=125	=125	=125	=125	=125	=125	=125
4.cn\	.	2.r	.	4.a/	.	8eee\L	.
.	.	.	.	.	.	8ee\	.
.	.	.	.	.	.	8ee\J	.
4.B\)	.	.	.	4.g#/)	.	8eee\L	.
.	.	.	.	.	.	8ee\	.
.	.	.	.	.	.	8ee\J	.
=126	=126	=126	=126	=126	=126	=126	=126
4cn\	.	4r	.	8a/L	.	4eee\	.
.	.	.	.	8e/	.	.	.
8r	.	8r	.	8e/J	.	8r	.
(4.Cn/	.	[4.E/	.	8ee/L	.	(4.aa\	.
.	.	.	.	8e/	.	.	.
.	.	.	.	8e/J	.	.	.
=127	=127	=127	=127	=127	=127	=127	=127
4.BB/	.	4.E/_	.	8dd/L	.	4.gg#\	.
.	.	.	.	8e/	.	.	.
.	.	.	.	8e/J	.	.	.
4.AA/)	.	(8E/L]	.	8ccn/L	.	4.aa\)	.
.	.	8A/	.	8e/	.	.	.
.	.	8cn/J)	.	8e/J	.	.	.
=128	=128	=128	=128	=128	=128	=128	=128
4EE/	.	4e\	.	4g#/	.	4bb\	.
8r	.	8r	.	8r	.	8r	.
(4E\	pp	4r	.	4r	.	4r	.
8E\)	.	8r	.	8r	.	8r	.
=129	=129	=129	=129	=129	=129	=129	=129
(4E\	.	2.r	.	4r	.	4r	.
8D\	.	.	.	8r	.	8r	.
4C#/	.	.	.	(4e/	pp	(4ff#\	pp
8BB/)	.	.	.	8d/)	.	8ff#\)	.
=130	=130	=130	=130	=130	=130	=130	=130
[4.AA#/	.	[2.F#/	pp	[4.c#/	.	(4ff#\	.
.	.	.	.	.	.	8ee\	.
4AA#/]	.	.	.	4c#/]	.	4dd\	.
(24AA#/LL	.	.	.	(24c#/LL	.	8cc#\)	.
24BB/	.	.	.	24d/	.	.	.
24C#/JJ	.	.	.	24e/JJ	.	.	.
=131	=131	=131	=131	=131	=131	=131	=131
4D\	.	(4.F#/]	.	4f#/	.	[4.b\	.
8C#/	.	.	.	8e/	.	.	.
4BB/	.	[4.B/)	.	4d/	.	4b\]	.
8AA/)	.	.	.	8c#/)	.	(24b\LL	.
.	.	.	.	.	.	24cc#\	.
.	.	.	.	.	.	24dd\JJ	.
=132	=132	=132	=132	=132	=132	=132	=132
[4.GG#/	.	4.B/]	.	[4.B/	.	4ee\	.
.	.	.	.	.	.	8dd\	.
4GG#/]	.	[4.E/	.	4B/]	.	4cc#\	.
(24EE/LL	.	.	.	(24G#/LL	.	8b\)	.
24FF#/	.	.	.	24A/	.	.	.
24GG#/JJ	.	.	.	24B/JJ	.	.	.
=133	=133	=133	=133	=133	=133	=133	=133
[4.AA/)	<	4.E/]	<	[4.c#/	<	(4dd\	<
.	.	.	.	.	.	8cc#\	<
4AA/]	<	[4.A/	<	4c#/]	<	4b\	.
(24AA/LL	.	.	.	24c#/LL	.	8a/	.
24BB/	.	.	.	24d/	.	.	.
24C#/JJ	.	.	.	&(24e/JJ&)	.	.	.
=134	=134	=134	=134	=134	=134	=134	=134
[4.D\)	.	4.A/]	.	4e/	.	4g#/	.
.	.	.	.	8d/	.	8f#/	.
4D\]	.	4.A/	.	4c#/	.	4e/	.
(24D\LL	.	.	.	8B/)	.	8d/)	.
24E\	.	.	.	.	.	.	.
24F#\JJ	.	.	.	.	.	.	.
=135	=135	=135	=135	=135	=135	=135	=135
2.E\)	f	2.A/	f	2.c#/	f	16c#\LL	f
.	.	.	.	.	.	16e\	.
.	.	.	.	.	.	16a\	.
.	.	.	.	.	.	16cc#\	.
.	.	.	.	.	.	16ee\	.
.	.	.	.	.	.	16aa\JJ	.
.	.	.	.	.	.	16ccc#\LL	.
.	.	.	.	.	.	16aa\	.
.	.	.	.	.	.	16eee\	.
.	.	.	.	.	.	16ccc#\	.
.	.	.	.	.	.	16bb\	.
.	.	.	.	.	.	16aa\JJ	.
=136	=136	=136	=136	=136	=136	=136	=136
[4.EE/	.	[4.B/	.	[4.d/	.	(16gg#\LL	.
.	.	.	.	.	.	16aa\)	.
.	.	.	.	.	.	16bb\	.
.	.	.	.	.	.	16aa\	.
.	.	.	.	.	.	16gg#\	.
.	.	.	.	.	.	16ff#\JJ	.
8EE/L]	.	8B\L]	.	8d/L]	.	16ee\LL	.
.	.	.	.	.	.	16dd#\	.
8EE/	.	8d\	.	8g#/	.	16ee\	.
.	.	.	.	.	.	16dd\	.
8EE/J	.	8d\J	.	8g#/J	.	16cc#\	.
.	.	.	.	.	.	16b\JJ	.
=137	=137	=137	=137	=137	=137	=137	=137
8AA/L	.	4c#\	.	4a/	.	4a\ 4aa\	.
8C#/	.	.	.	.	.	.	.
8E/J	.	8r	.	8r	.	8r	.
.	.	.	.	.	.	(bq\	.
.	.	.	.	.	.	aq\)	.
.	.	.	.	.	.	g#q\	.
4A\	.	4c#\	.	4e/	.	8a\L	.
.	.	.	.	.	.	8b\	.
8r	.	8r	.	8r	.	8cc#\J	.
=138	=138	=138	=138	=138	=138	=138	=138
8AA/L	.	4r	.	4r	.	4r	.
8C#/	.	.	.	.	.	.	.
8E/J	.	8r	.	8r	.	8r	.
.	.	.	.	.	.	(ddq\	.
.	.	.	.	.	.	cc#q\)	.
.	.	.	.	.	.	bq\	.
4A\	.	4c#\	.	4e/	.	8cc#\L	.
.	.	.	.	.	.	8dd\	.
8r	.	8r	.	8r	.	8ee\J	.
=139	=139	=139	=139	=139	=139	=139	=139
8AA/L	.	4r	.	4r	.	4r	.
8C#/	.	.	.	.	.	.	.
8E/J	.	8r	.	8r	.	8r	.
.	.	.	.	.	.	(ff#q\	.
.	.	.	.	.	.	eeq\)	.
.	.	.	.	.	.	dd#q\	.
4A\	.	4c#\	.	4e/	.	8ee\L	.
.	.	.	.	.	.	8ff#\	.
8r	.	8r	.	8r	.	8gg#\J	.
=140	=140	=140	=140	=140	=140	=140	=140
2.r	.	2.r	.	2.r	.	8aa\L	.
.	.	.	.	.	.	8bb\	.
.	.	.	.	.	.	8ccc#\J	.
.	.	.	.	.	.	8ccc#\L	.
.	.	.	.	.	.	8ddd\	.
.	.	.	.	.	.	8eee\J	.
=141	=141	=141	=141	=141	=141	=141	=141
(8AA/L	p	(2.d\	p	(2.f#/	p	(4.fff#\	p
8D/	.	.	.	.	.	.	.
8F#/J)	.	.	.	.	.	.	.
[4.AA/	.	.	.	.	.	8ddd\L)	.
.	.	.	.	.	.	8r	.
.	.	.	.	.	.	8ccc#\J	.
=142	=142	=142	=142	=142	=142	=142	=142
(8AA/L]	.	[2.B/)	.	[2.g#/)	.	8bb\L	.
8D/	.	.	.	.	.	8r	.
8E/J)	.	.	.	.	.	8ccc#\J	.
[4.AA/	.	.	.	.	.	8ddd\L	.
.	.	.	.	.	.	8r	.
.	.	.	.	.	.	8ddd#\J	.
=143	=143	=143	=143	=143	=143	=143	=143
(8AA/L]	.	(4.B/]	.	(4.g#/]	.	(4.eee\	.
8D/	.	.	.	.	.	.	.
8E/J)	.	.	.	.	.	.	.
(8AA/L	.	[4.c#\)	.	[4.a/	.	8ccc#\L)	.
8C#/	.	.	.	.	.	8aa\	.
8E/J)	.	.	.	.	.	8bb\J	.
=144	=144	=144	=144	=144	=144	=144	=144
(8AA/L	.	4.c#\]	.	4.a/]	.	8ccc#\L	.
8C#/	.	.	.	.	.	8ccc#\	.
8E/J)	.	.	.	.	.	8ddd\J	.
(8AA\L	.	4.c#\	.	4.gn/)	.	8eee\L	.
8E\	.	.	.	.	.	8eee\	.
8Gn\J)	.	.	.	.	.	8eee#\J	.
=145	=145	=145	=145	=145	=145	=145	=145
(8AA/L	.	(2.d\	.	(2.f#/	.	(4.fff#\	.
8D/	.	.	.	.	.	.	.
8F#/J)	.	.	.	.	.	.	.
[4.AA/	.	.	.	.	.	4ddd\)	.
.	.	.	.	.	.	8ccc#\	.
=146	=146	=146	=146	=146	=146	=146	=146
(8AA/L]	.	2.B/)	.	2.g#/)	.	8bb\L	.
8D/	.	.	.	.	.	8r	.
8E/J)	.	.	.	.	.	8ccc#\J	.
(8AA/L	.	.	.	.	.	8ddd\L	.
8BB/	.	.	.	.	.	8r	.
8D/J)	.	.	.	.	.	8eee\J	.
=147	=147	=147	=147	=147	=147	=147	=147
4AA/	.	4c#\	.	4a/	.	4aa\	.
8r	.	8r	.	8r	.	8r	.
4.r	.	4r	.	4r	.	(16a\LL	p
.	.	.	.	.	.	16b\	.
.	.	.	.	.	.	16cc#\	.
.	.	.	.	.	.	16dd\	.
.	.	8r	.	8r	.	16ee\	.
.	.	.	.	.	.	16cc#\JJ)	.
=148	=148	=148	=148	=148	=148	=148	=148
8r	.	8r	.	8r	.	4dd\	.
8E\L	p	8E/L	p	8e/L	p	.	.
8E\J	.	8E/J	.	8e/J	.	8r	.
4r	.	4r	.	4r	.	(16ee\LL	.
.	.	.	.	.	.	16ff#\	.
.	.	.	.	.	.	16gg#\	.
.	.	.	.	.	.	16aa\	.
8r	.	8r	.	8r	.	16bb\	.
.	.	.	.	.	.	16gg#\JJ)	.
=149	=149	=149	=149	=149	=149	=149	=149
8r	.	8r	.	8r	.	4aa\	.
8C#/L	.	8C#/L	.	8c#/L	.	.	.
8C#/J	.	8C#/J	.	8c#/J	.	8r	.
4r	.	4r	.	4r	.	(16a\LL	.
.	.	.	.	.	.	16b\	.
.	.	.	.	.	.	16cc#\	.
.	.	.	.	.	.	16dd\	.
8r	.	8r	.	8r	.	16ee\	.
.	.	.	.	.	.	16cc#\JJ)	.
=150	=150	=150	=150	=150	=150	=150	=150
8r	.	2.r	.	8r	.	8ff#/L	.
8D\L	.	.	.	8d/L	.	8d/	.
8D\	.	.	.	8d/	.	8d/J	.
8r	.	.	.	8r	.	8gg#\L	.
8E\	.	.	.	8e/	.	8e\	.
8E\J	.	.	.	8e/J	.	8e\J	.
=151	=151	=151	=151	=151	=151	=151	=151
8r	.	2.r	.	8r	.	8aa/L	.
8AA/L	.	.	.	8A/L	.	8A/	.
8AA/J	.	.	.	8A/J	.	8A/J	.
4r	.	.	.	4r	.	(16a\LL	.
.	.	.	.	.	.	16b\	.
.	.	.	.	.	.	16cc#\	.
.	.	.	.	.	.	16dd\	.
8r	.	.	.	8r	.	16ee\	.
.	.	.	.	.	.	16cc#\JJ)	.
=152	=152	=152	=152	=152	=152	=152	=152
4FF#/	<	8r	.	8r	.	4dd\	<
.	.	8F#/L	<	8f#/L	<	.	.
8r	<	8F#/	<	8f#/	<	8r	<
4GGn/	.	8r	.	8r	.	4ddd\	.
.	.	8Gn/	.	8gn/	.	.	.
8r	.	8Gn/J	.	8gn/J	.	8r	.
=153	=153	=153	=153	=153	=153	=153	=153
4GG#/	.	8r	.	8r	.	4ddd\	.
.	.	8G#/L	.	8g#/L	.	.	.
8r	.	8G#/	.	8g#/	.	8r	.
4AA/	.	8r	.	8r	.	4ddd\	.
.	.	8A/	.	8a/	.	.	.
8r	.	8A/J	.	8a/J	.	8r	.
=154	=154	=154	=154	=154	=154	=154	=154
4BB-/	.	8r	.	8r	.	4ddd\	.
.	.	8B-/L	.	8b-\L	.	.	.
8r	.	8B-/	.	8b-\	.	8r	.
4BB/	.	8r	.	8r	.	4ddd\	.
.	.	8B/	.	8b\	.	.	.
8r	.	8B/J	.	8b\J	.	8r	.
=155	=155	=155	=155	=155	=155	=155	=155
4GGn/	f	8r	.	8r	.	8r	.
.	.	8B/L	f	8d/L	f	8gn\L 8ffn\	f
8r	.	8B/	.	8d/	.	8gn\ 8ffn\	.
4Cn/	.	8r	.	8r	.	8r	.
.	.	8cn/	.	8e/	.	8gn\ 8ee\	.
8r	.	8cn/J	.	8e/J	.	8gn\J 8ee\	.
=156	=156	=156	=156	=156	=156	=156	=156
4BB/	p	8r	.	8r	.	4eee\	p
.	.	8B/L	p	8b\L	p	.	.
8r	.	8B/	.	8b\	.	8r	.
4Cn/	.	8r	.	8r	.	4eee\	.
.	.	8cn/	.	8ccn\	.	.	.
8r	.	8cn/J	.	8ccn\J	.	8r	.
=157	=157	=157	=157	=157	=157	=157	=157
4AA/	f	8r	.	8r	.	8r	.
.	.	8c#\L	f	8e/L	f	8a\L 8ggn\	f
8r	.	8c#\	.	8e/	.	8a\ 8ggn\	.
4D\	.	8r	.	8r	.	8r	.
.	.	8d\	.	8fn/	.	8a\ 8ffn\	.
8r	.	8d\J	.	8fn/J	.	8a\J 8ffn\	.
=158	=158	=158	=158	=158	=158	=158	=158
4D#\	p	8r	.	8r	.	8aa\	p
.	.	8A/L	p	8cn/L	p	8ccn\L	.
8r	.	8A/	.	8cn/	.	8ccn\	.
4E\	.	8r	.	8r	.	8r	.
.	.	8A/	.	8cn/	.	8ccn\	.
8r	.	8A/J	.	8cn/J	.	8ccn\J	.
=159	=159	=159	=159	=159	=159	=159	=159
4Fn\	.	8r	.	8r	.	8r	.
.	.	8A/L	.	8cn/L	.	8ccn\L	.
8r	.	8A/	.	8cn/	.	8ccn\	.
4D#\	.	8r	.	8r	.	8r	.
.	.	8A/	.	8cn/	.	8ccn\	.
8r	.	8A/J	.	8cn/J	.	8ccn\J	.
=160	=160	=160	=160	=160	=160	=160	=160
8EE/L	.	8G#/L	.	4B/	.	(16b\LL	.
.	.	.	.	.	.	16e\	.
8E/	.	8E/	.	.	.	16g#\	.
.	.	.	.	.	.	16b\	.
8E/J	.	8E/J	.	8r	.	16ee\	.
.	.	.	.	.	.	16gg#\JJ)	.
(8D/L	.	[4.E/	.	4r	.	(4bb\	.
8BB/	.	.	.	.	.	.	.
8D/J	.	.	.	8r	.	8gg#\	.
=161	=161	=161	=161	=161	=161	=161	=161
8C#/L	.	4.E/_	.	8r	.	4aa\	.
8AA/	.	.	.	(8cc#\L	.	.	.
8GG#/J	.	.	.	8b\J	.	8bb\	.
8AA/L	.	(8E/L]	.	8cc#\L	.	4ccc#\	.
8FF#/	.	8A/)	.	8a\	.	.	.
8BB/J)	.	8A/J	.	8b\J)	.	8ddd#\)	.
=162	=162	=162	=162	=162	=162	=162	=162
8EE/L	.	4G#/	.	4b\	.	8eee\L	<
(8E/	.	.	.	.	.	8ee\	<
8D#/J	.	8r	.	8r	.	8ff#\J	.
8E/L	.	[4.E/	.	4r	.	8gg#\L	.
8D/	.	.	.	.	.	8gg#\	.
8BB/J	.	.	.	8r	.	8gg#\J	.
=163	=163	=163	=163	=163	=163	=163	=163
8C#/L	<	4.E/_	<	8r	.	8aa\L	.
8AA/	<	.	.	(8cc#\L	<	8aa\	.
8GG#/J	.	.	.	8b\J	<	8bb\J	.
8AA/L	.	(8E/L]	<	8cc#/L	.	8ccc#\L	.
8FF#/	.	8A/	.	8a/	.	8ccc#\	.
8BB/J)	.	8B/J)	.	8a/J)	.	8ddd#\J	.
=164	=164	=164	=164	=164	=164	=164	=164
8EE/L	f	4B/	f	4g#/	f	8eee\L	f
8GG#/	.	.	.	.	.	8eee\	.
8BB/J	.	8r	.	8r	.	8ggg#\J	.
8E\L	.	4B/	.	4g#/	.	8eee\L	.
8G#\	.	.	.	.	.	8eee\	.
8B\J	.	8r	.	8r	.	8bbb\J	.
=165	=165	=165	=165	=165	=165	=165	=165
4e\	.	4B/	.	4g#/	.	4eee\	.
8r	.	8r	.	8r	.	8r	.
8r	.	8r	.	4r	.	8r	.
8r	.	8r	.	.	.	8r	.
8E\	p	8E/	p	8e/	p	8e/	p
=166	=166	=166	=166	=166	=166	=166	=166
4cn\	.	4cn\	.	4ccn\	.	4ccn\	.
8G#\	.	8G#/	.	8g#/	.	8g#/	.
4A\	.	4A/	.	4a/	.	4a/	.
8E\	.	8E/	.	8e/	.	8e/	.
=167	=167	=167	=167	=167	=167	=167	=167
(4Fn\	.	(4Fn/	.	(4fn/	.	(4fn/	.
16Gn\LL	.	16Gn/LL	.	16gn/LL	.	16gn/LL	.
16Fn\JJ	.	16Fn/JJ)	.	16fn/JJ	.	16fn/JJ)	.
4E\)	.	4E/	.	4e/)	.	4e/	.
(16e\LL	.	8r	.	8r	.	8e/	.
16d\JJ)	.	.	.	.	.	.	.
=168	=168	=168	=168	=168	=168	=168	=168
(4cn\	.	2.r	.	(4e/	.	(4a/	.
8B\	.	.	.	8g#/	.	8b\	.
4A\	.	.	.	4a/)	.	4ccn\	.
8G#\)	.	.	.	8b\	.	8dd\)	.
=169	=169	=169	=169	=169	=169	=169	=169
(4A\	.	2.r	.	(4b\	.	(4dd\	.
8D#\	.	.	.	8a/	.	8ccn\	.
4E\)	.	.	.	4g#/)	.	4b\)	.
8r	.	.	.	8r	.	(8e/	.
=170	=170	=170	=170	=170	=170	=170	=170
(4A\	.	[4.e\	.	(4cn/	.	4ccn\	.
8B\	.	.	.	8d/	.	8g#/	.
4cn\)	.	4e\]	.	4e/	.	4a/)	.
(8c#\	.	(8e\	.	8gn/	.	(8a/	.
=171	=171	=171	=171	=171	=171	=171	=171
4d\	.	[4.a\)	.	4fn/	.	4ffn\	.
8e\	.	.	.	8gn/	.	8cc#\	.
4fn\)	.	4a\]	.	4a/)	.	4dd\)	.
8B\	.	8r	.	8ffn\	.	8aa\	.
=172	=172	=172	=172	=172	=172	=172	=172
4cn\	.	8r	.	(8ffn\L	.	(8aa\L	.
.	.	8r	.	8ee\	.	8ggn\)	.
8F#\	.	8a\	.	8dd\J	.	8ffn\J	.
4Gn\	.	(8a\L	.	8dd\L	.	(8ffn\L	.
.	.	8gn\)	.	&(8cc#\&)	.	8ee\)	.
8GGn/	.	8fn\J	.	8b\J	.	8dd\J	.
=173	=173	=173	=173	=173	=173	=173	=173
4Cn/	.	(4.fn\	.	4.b\	.	(4.dd\	.
8Gn\	.	.	.	.	.	.	.
4cn\	.	4e\)	.	4ccn\)	.	4ccn\)	.
8EE/	f	8E/	f	8e/	f	8r	.
=174	=174	=174	=174	=174	=174	=174	=174
4Cn/	.	4cn\	.	4ccn\	.	2.r	.
8GG#/	.	8G#/	.	8g#/	.	.	.
4AA/	.	4A/	.	4a/	.	.	.
8EE/	.	8E/	.	8e/	.	.	.
=175	=175	=175	=175	=175	=175	=175	=175
(4FFn/	.	(4Fn/	.	(4fn/	.	4r	.
16GGn/LL	.	16Gn/LL	.	16gn/LL	.	8r	.
16FFn/JJ)	.	16Fn/JJ	.	16fn/JJ)	.	.	.
4EE/	.	4E/	.	4e/	.	8r	.
.	.	.	.	.	.	8r	.
8r	.	16ee\LL	p	8ee\	p	(8ee\	p
.	.	&(16dd\JJ&)	.	.	.	.	.
=176	=176	=176	=176	=176	=176	=176	=176
2.r	.	4ccn\	.	(4ee\	.	4aa\	.
.	.	8b\	.	8gg#\	.	8bb\	.
.	.	4a\	.	4aa\	.	4cccn\	.
.	.	8g#\)	.	8bb\)	.	8ddd\)	.
=177	=177	=177	=177	=177	=177	=177	=177
2.r	.	(4a\	.	(4bb\	.	(4ddd\	.
.	.	8d#\	.	8aa\	.	8cccn\	.
.	.	4e\)	.	4gg#\)	.	4bb\)	.
.	.	8r	.	8r	.	(8ee\	pp
=178	=178	=178	=178	=178	=178	=178	=178
(4A\	pp	[4.e\	.	(4cc#\	pp	4ccc#\	.
8B\	.	.	.	8dd\	.	8gg#\	.
4c#\)	.	4e\]	.	4ee\)	.	4aa\)	.
(8c#\	.	(8gn\	.	8a/	.	(8aa\	.
=179	=179	=179	=179	=179	=179	=179	=179
4d\	.	4f#\	.	[4.a/	.	4fff#\	.
8e\)	.	8gn\	.	.	.	8ccc#\	.
4f#\	.	4a\)	.	4a/]	.	4ddd\)	.
8r	.	8r	.	8r	.	8r	.
=180	=180	=180	=180	=180	=180	=180	=180
2.r	.	2.r	.	2.r	.	4r	.
.	.	.	.	.	.	8r	.
.	.	.	.	.	.	8r	.
.	.	.	.	.	.	8r	.
.	.	.	.	.	.	(8aa\	.
=181	=181	=181	=181	=181	=181	=181	=181
2.r	.	4r	.	2.r	.	4fff#\	.
.	.	8r	.	.	.	8ccc#\	.
.	.	8r	.	.	.	4ddd\	.
.	.	8r	.	.	.	.	.
.	.	(8cc#\	.	.	.	8aa#\	.
=182	=182	=182	=182	=182	=182	=182	=182
4r	.	4dd\	.	8r	.	4bb\)	.
.	.	.	.	8r	.	.	.
8r	.	8a#\	.	(8cc#\	.	[8ff#\	.
8r	.	4b\)	.	4dd\)	.	4ff#\]	.
8r	.	.	.	.	.	.	.
8A\	.	[8b\	.	[8dd\	.	8ffn\	.
=183	=183	=183	=183	=183	=183	=183	=183
(4G#\	.	(4b\]	.	(4dd\]	.	[4.ee\	.
8A\	.	8a\	.	8cc#\	.	.	.
4D\	.	4f#\	.	4b\	.	(8ee\L]	.
.	.	.	.	.	.	8dd\)	.
8E\)	.	8d\)	.	8g#/)	.	8b\J	.
=184	=184	=184	=184	=184	=184	=184	=184
4AA/	.	4c#\	.	(4a/	pp	4a/	.
8r	.	8r	.	8b\)	.	8r	.
4r	.	4r	.	8cc#\L	.	4r	.
.	.	.	.	8b\	.	.	.
8r	.	8r	.	8a\J	.	8r	.
=185	=185	=185	=185	=185	=185	=185	=185
2.r	.	(4e\	pp	4g#/	.	4r	.
.	.	8f#\)	.	8f#/	.	8r	.
.	.	8g#\L	.	4e/	.	8r	.
.	.	8f#\	.	.	.	8aa#\L	pp
.	.	8e\J	.	8r	.	8aa#\J	.
=186	=186	=186	=186	=186	=186	=186	=186
2.r	.	4d\	.	(4b\	.	4bb\	.
.	.	8c#\	.	8cc#\)	.	8r	.
.	.	4B/	.	8dd\L	.	4r	.
.	.	.	.	8cc#\	.	.	.
.	.	8r	.	8b\J	.	8r	.
=187	=187	=187	=187	=187	=187	=187	=187
2.r	.	(4f#\	.	4a/	.	4r	.
.	.	8g#\)	.	8g#/	.	8r	.
.	.	8a\L	.	4f#/	.	8r	.
.	.	8g#\	.	.	.	8bb#\L	.
.	.	8f#\J	.	8r	.	8bb#\J	.
=188	=188	=188	=188	=188	=188	=188	=188
2.r	.	(4e\	.	(4cc#\	.	4ccc#\	.
.	.	8d#\)	.	8dd#\)	.	8r	.
.	.	4c#\	.	8ee\L	.	4r	.
.	.	.	.	8dd#\	.	.	.
.	.	8r	.	8cc#\J	.	8r	.
=189	=189	=189	=189	=189	=189	=189	=189
(4E\	f	8E/L	f	(8dd/L	f	(4dd\ 4ddd\	f
.	.	8e/	.	8g#/)	.	.	.
8F#\)	.	8e/J	.	8a/J	.	8ccc#\)	.
8G#\L	.	8e\L	.	8b\L	.	8bb\L	.
8A\	.	8e\	.	8cc#\	.	8aa\	.
8B\J	.	8e\J	.	8dd\J	.	8gg#\J	.
=190	=190	=190	=190	=190	=190	=190	=190
(8c#\L	p	(8e\L	p	8ee\	p	(8gg#\L	p
8A\J)	.	8c#\J	.	(8ee\L	.	8aa\)	.
8r	.	8r	.	8cc#\	.	8ee\	.
(8D\L	.	8F#/L	.	8r	.	8r	.
8F#\J)	.	&(8A/J&)	.	8ff#\	.	(8aa\	.
8r	.	8r	.	&(8dd\J&)	.	8ff#\J)	.
=191	=191	=191	=191	=191	=191	=191	=191
(8E\L	.	8A/L	.	8r	.	8r	.
8A\J)	.	8c#/J	.	8cc#/L	.	(8ee\L	.
8r	.	8r	.	8a/	.	8cc#\)	.
(8E\L	.	8B\L	.	8r	.	8r	.
8B\J)	.	&(8d\J&)	.	8b/	.	(8dd\	.
8r	.	8r	.	&(8g#/J&)	.	8b\J)	.
=192	=192	=192	=192	=192	=192	=192	=192
4AA/	f	4c#\	f	8a/L	f	8a\L	f
.	.	.	.	8a/	.	8aa\	.
8r	.	8r	.	8b/J	.	8bb\J	.
4r	.	4r	.	8cc#\L	.	8ccc#\L	.
.	.	.	.	8b\	.	8bb\	.
8r	.	8r	.	8a\J	.	8aa\J	.
=193	=193	=193	=193	=193	=193	=193	=193
(4E\	.	4e\	.	4g#/	.	4gg#\	.
8F#\)	.	8f#\)	.	8f#/	.	8ff#\	.
8Gn\L	.	8gn\L	.	4e/	.	4ee\	.
8F#\	.	8f#\	.	.	.	.	.
8E\J	.	8e\J	.	8r	.	8r	.
=194	=194	=194	=194	=194	=194	=194	=194
4D\	.	4d\	.	4b\	.	(4bb\	.
8C#/	.	8c#\	.	8cc#\)	.	8ccc#\)	.
4BB/	.	4B/	.	8dd\L	.	8ddd\L	.
.	.	.	.	8cc#\	.	8ccc#\	.
8r	.	8r	.	8b\J	.	8bb\J	.
=195	=195	=195	=195	=195	=195	=195	=195
(4F#\	.	(4f#\	.	4a/	.	4aa\	.
8G#\)	.	8g#\)	.	8g#/	.	8gg#\	.
8A\L	.	8a\L	.	4f#/	.	4ff#\	.
8G#\	.	8g#\	.	.	.	.	.
8F#\J	.	8f#\J	.	8r	.	8r	.
=196	=196	=196	=196	=196	=196	=196	=196
4E\	.	4e\	.	(4cc#\	.	(4ccc#\	.
8D#\	.	8d#\	.	8dd#\)	.	8ddd#\)	.
4C#/	.	4.c#\	.	8ee\L	.	8eee\L	.
.	.	.	.	8dd#\	.	8eee\	.
8r	.	.	.	8cc#\J	.	8eee\J	.
=197	=197	=197	=197	=197	=197	=197	=197
4E\	.	4G#/	.	4dd\	.	2.eee\	.
8F#\	.	8A/	.	8cc#\	.	.	.
8G#\L	.	8B\L	.	8b/L	.	.	.
8A\	.	8c#\	.	8a/	.	.	.
8B\J	.	8d\J	.	8g#/J	.	.	.
=198	=198	=198	=198	=198	=198	=198	=198
4E\	.	4G#/	.	4dd\	.	2.eee\	.
8F#\	.	8A/	.	8cc#\	.	.	.
8G#\L	.	8B\L	.	8b/L	.	.	.
8A\	.	8c#\	.	8a/	.	.	.
8B\J	.	8d\J	.	8g#/J	.	.	.
=199	=199	=199	=199	=199	=199	=199	=199
8B\L	.	8G#/L	.	8dd\L	.	8eee\L	.
8B\	.	8e/	.	8dd\	.	8gg#\	.
8A\J	.	8e/J	.	8cc#\J	.	8aa\J	.
8G#\L	.	8e\L	.	8b/L	.	8bb\L	.
8F#\	.	8e\	.	8a/	.	8ccc#\	.
8E\J	.	8e\J	.	8g#/J	.	8ddd\J	.
=200	=200	=200	=200	=200	=200	=200	=200
4A\	.	4e\	.	8a/	.	4.ccc#\	.
.	.	.	.	(8a\L	.	.	.
8r	.	8r	.	8aa\	.	.	.
4F#\	.	4A/	.	8r	.	4.ddd\	.
.	.	.	.	8a\	.	.	.
8r	.	8r	.	&(8aa\J&)	.	.	.
=201	=201	=201	=201	=201	=201	=201	=201
4C#/	.	4A/	.	8r	.	4.eee\	.
.	.	.	.	8a\L	.	.	.
8r	.	8r	.	8aa\	.	.	.
4D#\	.	4A/	.	8r	.	4.fff#\	.
.	.	.	.	8a\	.	.	.
8r	.	8r	.	&(8aa\J&)	.	.	.
=202	=202	=202	=202	=202	=202	=202	=202
(8E/L	.	[4.A/	.	[4.c#/	.	[4.e/	.
8C#/	.	.	.	.	.	.	.
8AA/J)	.	.	.	.	.	.	.
8EE/L	.	8A/L]	.	8c#/L]	.	8e\L]	.
8EE/	.	8B/	.	8d/	.	8ddd\	.
8EE/J	.	8B/J	.	8d/J	.	8gg#\J	.
=203	=203	=203	=203	=203	=203	=203	=203
4AA/	.	4A/	.	4c#/	.	(16aa\LL	.
.	.	.	.	.	.	16ccc#\)	.
.	.	.	.	.	.	16eee\	.
.	.	.	.	.	.	16ccc#\	.
8r	.	8r	.	8r	.	16aa\	.
.	.	.	.	.	.	16ccc#\JJ	.
4r	.	4r	.	4r	.	16ee\LL	.
.	.	.	.	.	.	16aa\	.
.	.	.	.	.	.	16cc#\	.
.	.	.	.	.	.	16ee\	.
8r	.	8r	.	8r	.	16a\	.
.	.	.	.	.	.	16cc#\JJ	.
=204	=204	=204	=204	=204	=204	=204	=204
(8E/L	.	[4.A/	.	[4.c#/	.	[4.e/	.
8C#/	.	.	.	.	.	.	.
8AA/J)	.	.	.	.	.	.	.
8EE/L	.	8A/L]	.	8c#/L]	.	8e\L]	.
8EE/	.	8B/	.	8d/	.	8ddd\	.
8EE/J	.	8B/J	.	8d/J	.	8gg#\J	.
=205	=205	=205	=205	=205	=205	=205	=205
4AA/	.	4A/	.	4c#/	.	(16aa\LL	.
.	.	.	.	.	.	16ccc#\)	.
.	.	.	.	.	.	16eee\	.
.	.	.	.	.	.	16ccc#\	.
8r	.	8r	.	8r	.	16aa\	.
.	.	.	.	.	.	16ccc#\JJ	.
4r	.	4r	.	4r	.	16ee\LL	.
.	.	.	.	.	.	16aa\	.
.	.	.	.	.	.	16cc#\	.
.	.	.	.	.	.	16ee\	.
8r	.	8r	.	8r	.	16a\	.
.	.	.	.	.	.	16cc#\JJ	.
=206	=206	=206	=206	=206	=206	=206	=206
(8E/L	.	[4.A/	.	[4.c#/	.	[4.e/	.
8C#/	.	.	.	.	.	.	.
8AA/J)	.	.	.	.	.	.	.
8EE/L	.	8A/L]	.	8c#/L]	.	8e\L]	.
8EE/	.	8B/	.	8d/	.	8ddd\	.
8EE/J	.	8B/J	.	8d/J	.	8gg#\J	.
=207	=207	=207	=207	=207	=207	=207	=207
4AA/	.	4A/	.	4c#/	.	4aa\	.
8r	.	8r	.	8r	.	8r	.
4r	.	(4A/	p	4r	.	4r	.
8r	.	8A/)	.	8r	.	8r	.
=208	=208	=208	=208	=208	=208	=208	=208
2.r	.	(4A/	<	2.r	.	2.r	.
.	.	8A/	<	.	.	.	.
.	.	4A/	.	.	.	.	.
.	.	&(8A/&)	.	.	.	.	.
=209	=209	=209	=209	=209	=209	=209	=209
[4.A\	.	[4.gn\	.	[4.cc#\	.	[4.bb\	.
8A\L]	.	8g\L]	.	8cc#\L]	.	8bb\L]	.
8B\	.	8f#\	.	8dd\	.	8aa\	.
8c#\J	.	8e\J	.	8ee\J	.	8ggn\J	.
=210	=210	=210	=210	=210	=210	=210	=210
8d\L	.	8d\L	.	8a/L	.	8ff#\L	.
8c#\	.	8e\	.	8a#/	.	8ee\	.
8B\J	.	8f#\J	.	8b/J	.	8dd\J	.
8e\L	.	8e\L	.	8a/L	.	(8cc#\L	.
8e\	.	8e\	.	8b/)	.	8dd\)	.
8E\J	.	8e\J	.	8g#/J	.	8b\J	.
=211	=211	=211	=211	=211	=211	=211	=211
4A\	.	4e\	.	4a/	.	(8b\L	.
.	.	.	.	.	.	8cc#\)	.
8r	.	8r	.	8r	.	8a\J	.
(4A\	.	4A/	.	(4A/	.	(4a/	.
8A\)	<	8A/)	<	8A/)	<	8a/)	<
=212	=212	=212	=212	=212	=212	=212	=212
(4A\	.	(4A/	.	(4A/	.	(4a/	.
8A\)	.	8A/	.	8A/	.	8a/)	.
(4A\	.	4A/	.	4A/	.	(4a/	.
8A\)	.	&(8A/&)	.	&(8A/&)	.	8a/)	.
=213	=213	=213	=213	=213	=213	=213	=213
4.A#\	f	[4.c#\	f	[4.ggn\	f	[4.gggn\	f
8A#\L	.	8c#\L]	.	8gg\L]	.	8ggg\L]	.
8A#\	.	8c#\	.	8ff#\	.	8fff#\	.
8A#\J	.	8c#\J	.	8ff#\J	.	8eee\J	.
=214	=214	=214	=214	=214	=214	=214	=214
8B\L	.	8f#\L	.	8ff#\L	.	8ddd\L	.
8c#\	.	8f#\	.	8ee\	.	8ccc#\	.
8d\J	.	8f#\J	.	8dd\J	.	8bb\J	.
8e\L	.	8e\L	.	8cc#\L	.	(8aa\L	.
8e\	.	8e\	.	8dd\)	.	8bb\)	.
8E\J	.	8e\J	.	8dd\J	.	8gg#\J	.
=215	=215	=215	=215	=215	=215	=215	=215
4AA/	p	8e\	p	8cc#\	p	(16aa\LL	p
.	.	.	.	.	.	16ccc#\)	.
.	.	8A/L	.	(8c#/L	.	16eee\	.
.	.	.	.	.	.	16ccc#\	.
8r	.	8c#/	.	8e/	.	16eee\	.
.	.	.	.	.	.	16ccc#\JJ	.
4E\	.	8r	.	8r	.	(16ddd\LL	.
.	.	.	.	.	.	16bb\)	.
.	.	8B/	.	8d/	.	16gg#\	.
.	.	.	.	.	.	16ee\	.
8r	.	&(8d/J&)	.	&(8e/J&)	.	16dd\	.
.	.	.	.	.	.	16b\JJ	.
=216	=216	=216	=216	=216	=216	=216	=216
4A\	.	8r	.	8r	.	(16a\LL	.
.	.	.	.	.	.	16cc#\)	.
.	.	8c#\L	.	8a\L	.	16ee\	.
.	.	.	.	.	.	16aa\	.
8r	.	8e\	.	8cc#\	.	16ccc#\	.
.	.	.	.	.	.	16aa\JJ	.
4E\	.	8r	.	8r	.	(16gg#\LL	.
.	.	.	.	.	.	16bb\)	.
.	.	8d\	.	8b\	.	16ddd\	.
.	.	.	.	.	.	16bb\	.
8r	.	&(8e\J&)	.	&(8dd\J&)	.	16ddd\	.
.	.	.	.	.	.	16bb\JJ	.
=217	=217	=217	=217	=217	=217	=217	=217
4AA/	.	8r	.	8r	.	(16aa\LL	.
.	.	.	.	.	.	16ccc#\)	.
.	.	8A/L	.	8c#/L	.	16eee\	.
.	.	.	.	.	.	16ccc#\	.
8r	.	8c#/	.	8e/	.	16eee\	.
.	.	.	.	.	.	16ccc#\JJ	.
4E\	.	8r	.	8r	.	(16ddd\LL	.
.	.	.	.	.	.	16bb\)	.
.	.	8B/	.	8d/	.	16gg#\	.
.	.	.	.	.	.	16ee\	.
8r	.	&(8d/J&)	.	&(8e/J&)	.	16dd\	.
.	.	.	.	.	.	16b\JJ	.
=218	=218	=218	=218	=218	=218	=218	=218
4A\	.	8r	.	8r	.	(16a\LL	.
.	.	.	.	.	.	16cc#\)	.
.	.	8c#\L	.	8a\L	.	16ee\	.
.	.	.	.	.	.	16aa\	.
8r	.	8e\	.	8cc#\	.	16ccc#\	.
.	.	.	.	.	.	16aa\JJ	.
4E\	.	8r	.	8r	.	(16gg#\LL	.
.	.	.	.	.	.	16bb\)	.
.	.	8d\	.	8b\	.	16ddd\	.
.	.	.	.	.	.	16bb\	.
8r	.	&(8e\J&)	.	&(8dd\J&)	.	16ddd\	.
.	.	.	.	.	.	16bb\JJ	.
=219	=219	=219	=219	=219	=219	=219	=219
4AA/	.	8r	.	8r	.	(16aa\LL	.
.	.	.	.	.	.	16bb\	.
.	.	8c#\L	.	8a\L	.	16ccc#\	.
.	.	.	.	.	.	16ddd\	.
8r	.	8e\	.	8cc#\	.	16eee\	.
.	.	.	.	.	.	16ccc#\JJ)	.
4A\	.	8r	.	8r	.	(16aa\LL	.
.	.	.	.	.	.	16bb\	.
.	.	8c#\	.	8a\	.	16ccc#\	.
.	.	.	.	.	.	16ddd\	.
8r	.	&(8e\J&)	.	&(8cc#\J&)	.	16eee\	.
.	.	.	.	.	.	16ccc#\JJ)	.
=220	=220	=220	=220	=220	=220	=220	=220
*>B1	*>B1	*>B1	*>B1	*>B1	*>B1	*>B1	*>B1
4AA/	.	4c#\	.	4a/	.	4aa\	.
8r	.	8r	.	8r	.	8r	.
4r	.	4r	.	4r	.	4r	.
8r	.	8r	.	8r	.	8r	.
=221	=221	=221	=221	=221	=221	=221	=221
4r	.	4r	.	4r	.	4r	.
8r	.	8r	.	8r	.	8r	.
(4C#/	<	4C#/	<	4c#/	<	(4c#/	<
8C#/)	.	8C#/	.	8c#/)	.	8c#/)	.
=222:|!	=222:|!	=222:|!	=222:|!	=222:|!	=222:|!	=222:|!	=222:|!
*>B2	*>B2	*>B2	*>B2	*>B2	*>B2	*>B2	*>B2
(16AA/LL	f	4c#\	f	4a/	f	4aa\	f
16BB/	.	.	.	.	.	.	.
16C#/	.	.	.	.	.	.	.
16D/	.	.	.	.	.	.	.
16E/	.	8r	.	8r	.	8r	.
16C#/JJ)	.	.	.	.	.	.	.
4AA/	.	4r	.	(16a\LL	.	4r	.
.	.	.	.	16b\	.	.	.
.	.	.	.	16cc#\	.	.	.
.	.	.	.	16dd\	.	.	.
8r	.	8r	.	16ee\	.	8r	.
.	.	.	.	16cc#\JJ	.	.	.
=223	=223	=223	=223	=223	=223	=223	=223
4A\	p	8c#\L	p	8a\L	p	4r	.
.	.	8d\	.	8b\	.	.	.
8r	.	8e\J	.	8cc#\J	.	8r	.
4r	.	4r	.	4r	.	8aa\L	p
.	.	.	.	.	.	8bb\	.
8r	.	8r	.	8r	.	8ccc#\J	.
=224	=224	=224	=224	=224	=224	=224	=224
4A\	.	8a\L	.	8cc#\L	.	4r	.
.	.	8b\	.	8dd\	.	.	.
8r	.	8cc#\J	.	8ee\J	.	8r	.
4r	.	4r	.	4r	.	8ccc#\L	.
.	.	.	.	.	.	8ddd\	.
8r	.	8r	.	8r	.	8eee\J	.
=225	=225	=225	=225	=225	=225	=225	=225
4r	.	4r	.	8a\L	<	2.r	.
.	.	.	.	8b\	<	.	.
8r	.	8r	.	8cc#\J	.	.	.
8A\L	<	8e\L	<	8cc#\L	.	.	.
8B\	<	8e\	<	8dd\	.	.	.
8c#\J	.	8e\J	.	8ee\J	.	.	.
=226	=226	=226	=226	=226	=226	=226	=226
8c#\L	.	8a\L	.	8ee\L	.	4r	.
8d\	.	8a\	.	8ff#\	.	.	.
8B\J	.	8a\J	.	8gg#\J	.	8r	.
4c#\	.	4a\	.	4aa\	.	8eee\L	<
.	.	.	.	.	.	8fff#\	<
8r	.	8r	.	8r	.	8ggg#\J	.
=227	=227	=227	=227	=227	=227	=227	=227
4r	.	4r	.	4r	.	4aaa\	.
8r	.	8r	.	8r	.	8r	.
4E\	f	4e\	f	4e/ 4dd/	f	4e\ 4b\ 4gg#\	f
8r	.	8r	.	8r	.	8r	.
=228	=228	=228	=228	=228	=228	=228	=228
4AA/	.	4A/	.	4e/ 4cc#/	.	4A/ 4e/ 4cc#/ 4aa/	.
8r	.	8r	.	8r	.	8r	.
4r	.	4r	.	4r	.	4r	.
8r	.	8r	.	8r	.	8r	.
==	==	==	==	==	==	==	==
*-	*-	*-	*-	*-	*-	*-	*-
!!!ENC: Craig Stuart Sapp
!!!END: 2005/12/08/
